; generated by PrusaSlicer 2.6.1+MacOS-x64 on 2023-09-20 at 03:55:10 UTC


;
;

;
;

;
;
; 

; external perimeters extrusion width = 0.45mm
; perimeters extrusion width = 0.45mm
; infill extrusion width = 0.45mm
; solid infill extrusion width = 0.45mm
; top infill extrusion width = 0.40mm
; first layer extrusion width = 0.42mm

M73 P0 R42
M201 X2500 Y2500 Z400 E5000 ; sets maximum accelerations, mm/sec^2
M203 X180 Y180 Z12 E80 ; sets maximum feedrates, mm / sec
M204 P2000 R1250 T2500 ; sets acceleration (P, T) and retract acceleration (R), mm/sec^2
M205 X8.00 Y8.00 Z2.00 E10.00 ; sets the jerk limits, mm/sec
M205 S0 T0 ; sets the minimum extruding and travel feed rate, mm/sec
;TYPE:Custom
M862.3 P "MINI" ; printer model check
G90 ; use absolute coordinates
M83 ; extruder relative mode
M104 S170 ; set extruder temp for bed leveling
M140 S60 ; set bed temp
M109 R170 ; wait for bed leveling temp
M190 S60 ; wait for bed temp
M204 T1250 ; set travel acceleration
G28 ; home all without mesh bed level
G29 ; mesh bed leveling 
M204 T2500 ; restore travel acceleration
M104 S215 ; set extruder temp
G92 E0
G1 Y-2 X179 F2400
G1 Z3 F720
M109 S215 ; wait for extruder temp

; intro line
G1 X170 F1000
G1 Z0.2 F720
G1 X110 E8 F900
G1 X40 E10 F700
G92 E0

M221 S95 ; set flow
G21 ; set units to millimeters
G90 ; use absolute coordinates
M83 ; use relative distances for extrusion
M900 K0.2 ; Filament gcode LA 1.5
; ; Filament gcode LA 1.0
M107
;LAYER_CHANGE
;Z:0.2
;HEIGHT:0.2
;BEFORE_LAYER_CHANGE
G92 E0.0
;0.2


G1 E-3.2 F4200
G1 Z.2 F720
;AFTER_LAYER_CHANGE
;0.2
G1 Z.4
G1 X70.668 Y70.699 F9000
G1 Z.2 F720
G1 E3.2 F2400
M204 P600
;TYPE:Skirt/Brim
;WIDTH:0.42
G1 F1200
G1 X71.261 Y70.225 E.0238
G1 X71.654 Y70.017 E.01394
G1 X72.464 Y69.772 E.02653
G1 X73 Y69.723 E.01688
G1 X107.266 Y69.738 E1.07439
G1 X108.346 Y70.017 E.03497
G1 X108.739 Y70.225 E.01394
G1 X109.332 Y70.699 E.0238
G1 X109.775 Y71.261 E.02244
G1 X110.052 Y71.822 E.01962
G1 X110.228 Y72.464 E.02087
G1 X110.277 Y73 E.01688
G1 X110.277 Y107 E1.06605
G1 X110.228 Y107.536 E.01688
G1 X110.053 Y108.178 E.02086
G1 X109.775 Y108.739 E.01963
G1 X109.332 Y109.301 E.02244
G1 X108.739 Y109.775 E.0238
G1 X108.346 Y109.983 E.01394
G1 X107.536 Y110.228 E.02653
G1 X107 Y110.277 E.01688
G1 X73 Y110.277 E1.06605
G1 X72.464 Y110.228 E.01688
M73 P0 R41
G1 X71.822 Y110.052 E.02087
G1 X71.261 Y109.775 E.01962
G1 X70.699 Y109.332 E.02244
G1 X70.225 Y108.739 E.0238
G1 X70.017 Y108.346 E.01394
G1 X69.772 Y107.536 E.02653
G1 X69.723 Y107 E.01688
G1 X69.723 Y73 E1.06605
G1 X69.772 Y72.464 E.01688
G1 X69.948 Y71.822 E.02087
G1 X70.225 Y71.261 E.01962
G1 X70.631 Y70.747 E.02054
M204 P1000
; printing object 1x1x3_label_nomag id:0 copy 0
G1 E-2.24 F4200
;WIPE_START
G1 F7200
G1 X71.261 Y70.225 E-.4534
G1 X71.654 Y70.017 E-.24641
G1 X72.103 Y69.881 E-.26019
;WIPE_END
G1 Z.4 F720
G1 X107.06 Y72.937 F9000
G1 Z.2 F720
G1 E3.2 F2400
M204 P600
;TYPE:Perimeter
;WIDTH:0.419999
G1 F1200
G1 X107.113 Y73.113 E.00576
G1 X107.113 Y106.887 E1.05896
G1 X107.08 Y107.043 E.005
M73 P1 R41
G1 X106.916 Y107.113 E.00559
G1 X73.113 Y107.113 E1.05987
G1 X72.957 Y107.08 E.005
G1 X72.887 Y106.916 E.00559
G1 X72.887 Y73.113 E1.05987
G1 X72.92 Y72.957 E.005
G1 X73.084 Y72.887 E.00559
G1 X106.891 Y72.891 E1.05999
G1 X107.002 Y72.921 E.00361
M204 P1000
G1 X107.236 Y72.579 F9000
M204 P600
;TYPE:External perimeter
G1 F1200
G1 X107.42 Y72.763 E.00816
G1 X107.49 Y73.113 E.01119
G1 X107.49 Y106.887 E1.05896
G1 X107.42 Y107.237 E.01119
G1 X107.237 Y107.42 E.00811
G1 X106.964 Y107.49 E.00884
G1 X73.113 Y107.49 E1.06137
G1 X72.763 Y107.42 E.01119
G1 X72.58 Y107.237 E.00811
G1 X72.51 Y106.964 E.00884
G1 X72.51 Y73.113 E1.06137
G1 X72.58 Y72.763 E.01119
G1 X72.763 Y72.58 E.00811
G1 X73.036 Y72.51 E.00884
G1 X106.891 Y72.514 E1.0615
G1 X107.177 Y72.568 E.00913
M204 P1000
G1 X107.236 Y72.839 F9000
G1 X106.172 Y73.06
M204 P600
;TYPE:Solid infill
;WIDTH:0.420548
G1 F1200
G1 X106.766 Y73.654 E.02638
G1 X106.766 Y74.188 E.01677
G1 X105.808 Y73.23 E.04254
G1 X105.274 Y73.23 E.01677
G1 X106.766 Y74.722 E.06625
G1 X106.766 Y75.256 E.01677
G1 X104.74 Y73.23 E.08997
G1 X104.206 Y73.23 E.01677
G1 X106.766 Y75.79 E.11368
G1 X106.766 Y76.324 E.01677
G1 X103.671 Y73.23 E.13741
G1 X103.137 Y73.23 E.01677
G1 X106.766 Y76.858 E.16113
G1 X106.766 Y77.392 E.01677
G1 X102.603 Y73.23 E.18484
G1 X102.069 Y73.229 E.01677
G1 X106.766 Y77.927 E.2086
G1 X106.766 Y78.461 E.01677
G1 X101.535 Y73.229 E.23231
G1 X101.001 Y73.229 E.01677
G1 X106.766 Y78.995 E.25602
G1 X106.766 Y79.529 E.01677
G1 X100.467 Y73.229 E.27974
G1 X99.933 Y73.229 E.01677
G1 X106.766 Y80.063 E.30345
G1 X106.766 Y80.597 E.01677
G1 X99.399 Y73.229 E.32716
G1 X98.864 Y73.229 E.0168
G1 X106.766 Y81.131 E.3509
G1 X106.766 Y81.665 E.01677
G1 X98.33 Y73.229 E.37461
G1 X97.796 Y73.229 E.01677
G1 X106.766 Y82.199 E.39832
G1 X106.766 Y82.733 E.01677
G1 X97.262 Y73.229 E.42204
G1 X96.728 Y73.229 E.01677
G1 X106.766 Y83.267 E.44575
G1 X106.766 Y83.801 E.01677
G1 X96.194 Y73.229 E.46946
G1 X95.66 Y73.229 E.01677
G1 X106.766 Y84.335 E.49317
G1 X106.766 Y84.869 E.01677
G1 X95.126 Y73.229 E.51689
G1 X94.592 Y73.229 E.01677
G1 X106.766 Y85.403 E.5406
G1 X106.766 Y85.937 E.01677
G1 X94.058 Y73.229 E.56431
G1 X93.523 Y73.229 E.0168
M73 P2 R41
G1 X106.766 Y86.471 E.58805
G1 X106.766 Y87.006 E.0168
G1 X92.989 Y73.229 E.61178
G1 X92.455 Y73.228 E.01677
G1 X106.766 Y87.54 E.63552
G1 X106.766 Y88.074 E.01677
G1 X91.921 Y73.228 E.65923
G1 X91.387 Y73.228 E.01677
G1 X106.766 Y88.608 E.68294
G1 X106.766 Y89.142 E.01677
G1 X90.853 Y73.228 E.70666
G1 X90.319 Y73.228 E.01677
G1 X106.766 Y89.676 E.73037
G1 X106.766 Y90.21 E.01677
G1 X89.785 Y73.228 E.75408
G1 X89.251 Y73.228 E.01677
G1 X106.766 Y90.744 E.7778
G1 X106.766 Y91.278 E.01677
G1 X88.717 Y73.229 E.80149
G1 X88.183 Y73.229 E.01677
G1 X106.766 Y91.812 E.8252
G1 X106.767 Y92.346 E.01677
G1 X87.649 Y73.229 E.84893
G1 X87.115 Y73.229 E.01677
G1 X106.767 Y92.88 E.87265
G1 X106.767 Y93.414 E.01677
G1 X86.581 Y73.229 E.89636
G1 X86.048 Y73.229 E.01674
G1 X106.767 Y93.948 E.92005
G1 X106.767 Y94.482 E.01677
G1 X85.514 Y73.23 E.94374
G1 X84.98 Y73.23 E.01677
G1 X106.767 Y95.016 E.96745
G1 X106.767 Y95.55 E.01677
G1 X84.446 Y73.23 E.99117
G1 X83.912 Y73.23 E.01677
G1 X106.767 Y96.085 E1.0149
G1 X106.767 Y96.619 E.01677
G1 X83.378 Y73.23 E1.03862
G1 X82.844 Y73.23 E.01677
M73 P3 R41
G1 X106.767 Y97.153 E1.06233
G1 X106.767 Y97.687 E.01677
G1 X82.31 Y73.23 E1.08604
G1 X81.776 Y73.231 E.01677
M73 P3 R40
G1 X106.767 Y98.221 E1.10973
G1 X106.767 Y98.755 E.01677
G1 X81.243 Y73.231 E1.13342
G1 X80.709 Y73.231 E.01677
G1 X106.767 Y99.289 E1.15714
G1 X106.767 Y99.823 E.01677
G1 X80.175 Y73.231 E1.18085
G1 X79.641 Y73.231 E.01677
G1 X106.767 Y100.357 E1.20456
G1 X106.767 Y100.891 E.01677
G1 X79.107 Y73.231 E1.22827
G1 X78.573 Y73.232 E.01677
G1 X106.767 Y101.425 E1.25197
G1 X106.767 Y101.959 E.01677
G1 X78.039 Y73.232 E1.27568
G1 X77.505 Y73.232 E.01677
G1 X106.767 Y102.493 E1.29939
G1 X106.767 Y103.027 E.01677
G1 X76.971 Y73.232 E1.3231
G1 X76.438 Y73.232 E.01674
G1 X106.767 Y103.561 E1.34679
G1 X106.767 Y104.095 E.01677
M73 P4 R40
G1 X75.904 Y73.232 E1.37051
G1 X75.37 Y73.232 E.01677
G1 X106.767 Y104.63 E1.39424
G1 X106.767 Y105.164 E.01677
G1 X74.836 Y73.233 E1.41793
G1 X74.302 Y73.233 E.01677
G1 X106.767 Y105.698 E1.44165
G1 X106.767 Y106.232 E.01677
G1 X73.768 Y73.233 E1.46536
G1 X73.234 Y73.233 E.01677
G1 X106.767 Y106.767 E1.48909
G1 X106.234 Y106.767 E.01674
G1 X73.233 Y73.766 E1.46545
G1 X73.233 Y74.3 E.01677
G1 X105.7 Y106.767 E1.44173
G1 X105.166 Y106.767 E.01677
G1 X73.233 Y74.834 E1.41802
G1 X73.233 Y75.368 E.01677
G1 X104.632 Y106.767 E1.39431
G1 X104.098 Y106.767 E.01677
G1 X73.233 Y75.902 E1.3706
G1 X73.233 Y76.436 E.01677
M73 P5 R40
G1 X103.564 Y106.767 E1.34688
G1 X103.03 Y106.767 E.01677
G1 X73.233 Y76.97 E1.32317
G1 X73.233 Y77.504 E.01677
G1 X102.496 Y106.767 E1.29946
G1 X101.962 Y106.767 E.01677
G1 X73.233 Y78.038 E1.27574
G1 X73.233 Y78.572 E.01677
G1 X101.428 Y106.767 E1.25203
G1 X100.893 Y106.767 E.0168
G1 X73.233 Y79.107 E1.22827
G1 X73.233 Y79.641 E.01677
M73 P5 R39
G1 X100.359 Y106.767 E1.20456
G1 X99.825 Y106.767 E.01677
G1 X73.233 Y80.175 E1.18085
G1 X73.233 Y80.709 E.01677
G1 X99.291 Y106.767 E1.15714
G1 X98.757 Y106.767 E.01677
G1 X73.233 Y81.243 E1.13342
G1 X73.233 Y81.777 E.01677
G1 X98.223 Y106.767 E1.10971
G1 X97.689 Y106.767 E.01677
G1 X73.233 Y82.311 E1.086
G1 X73.233 Y82.845 E.01677
G1 X97.155 Y106.767 E1.06228
M73 P6 R39
G1 X96.621 Y106.767 E.01677
G1 X73.233 Y83.379 E1.03857
G1 X73.233 Y83.913 E.01677
G1 X96.087 Y106.767 E1.01486
G1 X95.553 Y106.767 E.01677
G1 X73.233 Y84.447 E.99115
G1 X73.233 Y84.981 E.01677
G1 X95.019 Y106.767 E.96743
G1 X94.485 Y106.767 E.01677
G1 X73.233 Y85.515 E.94372
G1 X73.233 Y86.049 E.01677
G1 X93.951 Y106.767 E.92001
G1 X93.417 Y106.767 E.01677
G1 X73.233 Y86.583 E.89629
G1 X73.233 Y87.117 E.01677
G1 X92.883 Y106.767 E.87258
G1 X92.349 Y106.767 E.01677
G1 X73.233 Y87.651 E.84887
G1 X73.233 Y88.185 E.01677
G1 X91.815 Y106.767 E.82516
G1 X91.281 Y106.767 E.01677
G1 X73.233 Y88.719 E.80144
G1 X73.233 Y89.253 E.01677
G1 X90.747 Y106.767 E.77773
G1 X90.213 Y106.767 E.01677
G1 X73.233 Y89.787 E.75402
G1 X73.233 Y90.322 E.0168
G1 X89.678 Y106.767 E.73026
G1 X89.144 Y106.767 E.01677
G1 X73.233 Y90.856 E.70655
G1 X73.233 Y91.39 E.01677
G1 X88.61 Y106.767 E.68283
G1 X88.076 Y106.767 E.01677
G1 X73.233 Y91.924 E.65912
G1 X73.233 Y92.458 E.01677
M73 P7 R39
G1 X87.542 Y106.767 E.63541
G1 X87.008 Y106.767 E.01677
G1 X73.233 Y92.992 E.61169
G1 X73.233 Y93.526 E.01677
G1 X86.474 Y106.767 E.58798
G1 X85.94 Y106.767 E.01677
G1 X73.233 Y94.06 E.56427
G1 X73.233 Y94.594 E.01677
G1 X85.406 Y106.767 E.54056
G1 X84.872 Y106.767 E.01677
G1 X73.233 Y95.128 E.51684
G1 X73.233 Y95.662 E.01677
G1 X84.338 Y106.767 E.49313
G1 X83.804 Y106.767 E.01677
G1 X73.233 Y96.196 E.46942
G1 X73.233 Y96.73 E.01677
G1 X83.27 Y106.767 E.4457
G1 X82.736 Y106.767 E.01677
G1 X73.233 Y97.264 E.42199
G1 X73.233 Y97.798 E.01677
G1 X82.202 Y106.767 E.39828
G1 X81.668 Y106.767 E.01677
G1 X73.233 Y98.332 E.37457
G1 X73.233 Y98.866 E.01677
G1 X81.134 Y106.767 E.35085
G1 X80.6 Y106.767 E.01677
G1 X73.233 Y99.4 E.32714
G1 X73.233 Y99.934 E.01677
G1 X80.066 Y106.767 E.30343
G1 X79.532 Y106.767 E.01677
G1 X73.233 Y100.468 E.27971
G1 X73.233 Y101.002 E.01677
G1 X78.998 Y106.767 E.256
G1 X78.463 Y106.767 E.0168
G1 X73.233 Y101.536 E.23227
G1 X73.233 Y102.071 E.0168
G1 X77.929 Y106.767 E.20853
G1 X77.395 Y106.767 E.01677
G1 X73.233 Y102.605 E.18482
G1 X73.233 Y103.139 E.01677
G1 X76.861 Y106.767 E.16111
G1 X76.327 Y106.767 E.01677
G1 X73.233 Y103.673 E.13739
G1 X73.233 Y104.207 E.01677
G1 X75.793 Y106.767 E.11368
G1 X75.259 Y106.767 E.01677
G1 X73.233 Y104.741 E.08997
G1 X73.233 Y105.275 E.01677
G1 X74.725 Y106.767 E.06625
G1 X74.191 Y106.767 E.01677
G1 X73.233 Y105.809 E.04254
G1 X73.233 Y106.343 E.01677
G1 X73.827 Y106.937 E.02638
M204 P1000
; stop printing object 1x1x3_label_nomag id:0 copy 0
M106 S255
;LAYER_CHANGE
;Z:0.45
;HEIGHT:0.25
;BEFORE_LAYER_CHANGE
G92 E0.0
;0.45


G1 E-2.24 F4200
;WIPE_START
G1 F7200
G1 X73.233 Y106.343 E-.46552
G1 X73.233 Y105.809 E-.29593
G1 X73.486 Y106.062 E-.19855
;WIPE_END
G1 Z.4 F720
G1 Z.45
;AFTER_LAYER_CHANGE
;0.45
M104 S200 ; set temperature
; printing object 1x1x3_label_nomag id:0 copy 0
G1 Z.65
G1 X107.118 Y72.515 F9000
G1 Z.45 F720
G1 E3.2 F2400
;TYPE:Perimeter
;WIDTH:0.449999
G1 F3300
G1 X107.288 Y72.611 E.00804
G1 X107.456 Y72.821 E.01108
G1 X107.504 Y73.122 E.01256
G1 X107.504 Y106.94 E1.39316
G1 X107.414 Y107.249 E.01326
G1 X107.211 Y107.45 E.01177
G1 X106.962 Y107.504 E.0105
G1 X73.06 Y107.504 E1.39662
G1 X72.751 Y107.414 E.01326
G1 X72.55 Y107.211 E.01177
G1 X72.496 Y106.962 E.0105
G1 X72.496 Y73.06 E1.39662
G1 X72.586 Y72.751 E.01326
G1 X72.789 Y72.55 E.01177
G1 X73.038 Y72.496 E.0105
G1 X106.878 Y72.496 E1.39406
G1 X107.058 Y72.51 E.00744
G1 X107.277 Y72.167 F9000
M204 P800
;TYPE:External perimeter
G1 F1200

G1 X107.406 Y72.201 E.0055
G1 F1199.199
G1 X107.408 Y72.201 E.00008
G1 X107.409 Y72.202 E.00006
G1 F1200
G1 X107.672 Y72.409 E.01379
G1 F1203.094
G1 X107.832 Y72.677 E.01286
G1 F1199.997
G1 X107.9 Y73.122 E.01854
G1 X107.9 Y73.797 E.02781
G1 X107.9 Y106.203 E1.33499
G1 X107.9 Y106.879 E.02785
G1 X107.832 Y107.323 E.0185
G1 F1203.094
G1 X107.672 Y107.591 E.01286
G1 X107.545 Y107.691 E.00666
G1 F1208.6
G1 X107.299 Y107.84 E.01185
G1 F1200
G1 X106.986 Y107.9 E.01313
G1 X106.311 Y107.9 E.02781
G1 F1199.997
G1 X73.797 Y107.9 E1.33944
G1 X73.122 Y107.9 E.02781
G1 X72.677 Y107.832 E.01854
G1 F1203.094
G1 X72.409 Y107.672 E.01286
G1 X72.309 Y107.545 E.00666
G1 F1208.6
G1 X72.16 Y107.299 E.01185
G1 F1200
G1 X72.1 Y106.986 E.01313
G1 X72.1 Y106.311 E.02781
G1 F1199.997
G1 X72.1 Y73.797 E1.33944
G1 X72.1 Y73.122 E.02781
M73 P7 R38
G1 X72.168 Y72.677 E.01854
G1 F1203.096
G1 X72.328 Y72.409 E.01286
G1 X72.455 Y72.309 E.00666
G1 F1208.603
G1 X72.701 Y72.16 E.01185
G1 F1199.997
G1 X73.014 Y72.1 E.01313
G1 X73.689 Y72.1 E.02781
G1 X106.203 Y72.1 E1.33944
G1 X106.878 Y72.1 E.02781
M73 P8 R38
G1 X107.044 Y72.107 E.00684
G1 F1205.344
G1 X107.218 Y72.152 E.0074
G1 F1264.238

M204 P1000
G1 X107.317 Y72.297 F9000
G1 E-2.24 F4200
;WIPE_START
G1 F7200
G1 X107.408 Y72.201 E-.10874
G1 X107.672 Y72.409 E-.18625
G1 X107.832 Y72.677 E-.17297
G1 X107.9 Y73.122 E-.24947
G1 X107.9 Y73.56 E-.24257
;WIPE_END
G1 Z.65 F720
G1 X72.775 Y72.917 F9000
G1 Z.45 F720
G1 E3.2 F2400
M204 P1500
;TYPE:Solid infill
;WIDTH:0.39365
G1 F6000
G1 X72.914 Y72.773 E.00707
;WIDTH:0.421825
G1 X73.078 Y72.813 E.00646
;WIDTH:0.449999
G1 X73.241 Y72.853 E.00691
G1 X72.853 Y73.241 E.0226
G1 X72.853 Y73.802 E.02311
G1 X73.802 Y72.853 E.05529
G1 X74.362 Y72.853 E.02307
G1 X72.853 Y74.362 E.08791
G1 X72.853 Y74.923 E.02311
G1 X74.923 Y72.853 E.1206
G1 X75.483 Y72.853 E.02307
G1 X72.853 Y75.483 E.15322
G1 X72.853 Y76.044 E.02311
G1 X76.044 Y72.853 E.18591
G1 X76.604 Y72.853 E.02307
G1 X72.853 Y76.604 E.21853
G1 X72.853 Y77.165 E.02311
G1 X77.165 Y72.853 E.25121
G1 X77.725 Y72.853 E.02307
G1 X72.853 Y77.725 E.28384
G1 X72.853 Y78.286 E.02311
G1 X78.286 Y72.853 E.31652
G1 X78.846 Y72.853 E.02307
G1 X72.853 Y78.846 E.34915
G1 X72.853 Y79.407 E.02311
G1 X79.407 Y72.853 E.38183
G1 X79.967 Y72.853 E.02307
G1 X72.853 Y79.967 E.41446
G1 X72.853 Y80.528 E.02311
G1 X80.528 Y72.853 E.44714
G1 X81.088 Y72.853 E.02307
G1 X72.853 Y81.088 E.47977
G1 X72.853 Y81.649 E.02311
G1 X81.649 Y72.853 E.51245
G1 X82.209 Y72.853 E.02307
G1 X72.853 Y82.209 E.54508
G1 X72.853 Y82.77 E.02311
G1 X82.77 Y72.853 E.57776
G1 X83.33 Y72.853 E.02307
G1 X72.853 Y83.33 E.61038
G1 X72.853 Y83.891 E.02311
G1 X83.891 Y72.853 E.64307
G1 X84.451 Y72.853 E.02307
G1 X72.853 Y84.451 E.67569
G1 X72.853 Y85.012 E.02311
G1 X85.012 Y72.853 E.70838
G1 X85.572 Y72.853 E.02307
G1 X72.853 Y85.572 E.741
G1 X72.853 Y86.133 E.02311
G1 X86.133 Y72.853 E.77369
G1 X86.694 Y72.853 E.02311
G1 X72.853 Y86.694 E.80637
G1 X72.853 Y87.254 E.02307
G1 X87.254 Y72.853 E.839
G1 X87.815 Y72.853 E.02311
G1 X72.853 Y87.815 E.87168
G1 X72.853 Y88.375 E.02307
G1 X88.375 Y72.853 E.9043
G1 X88.936 Y72.853 E.02311
G1 X72.853 Y88.936 E.93699
G1 X72.853 Y89.496 E.02307
G1 X89.496 Y72.853 E.96961
G1 X90.057 Y72.853 E.02311
G1 X72.853 Y90.057 E1.0023
G1 X72.853 Y90.617 E.02307
G1 X90.617 Y72.853 E1.03492
G1 X91.178 Y72.853 E.02311
G1 X72.853 Y91.178 E1.06761
G1 X72.853 Y91.738 E.02307
G1 X91.738 Y72.853 E1.10023
G1 X92.299 Y72.853 E.02311
G1 X72.853 Y92.299 E1.13291
G1 X72.853 Y92.859 E.02307
G1 X92.859 Y72.853 E1.16554
G1 X93.42 Y72.853 E.02311
G1 X72.853 Y93.42 E1.19822
G1 X72.853 Y93.98 E.02307
G1 X93.98 Y72.853 E1.23085
G1 X94.541 Y72.853 E.02311
G1 X72.853 Y94.541 E1.26353
G1 X72.853 Y95.101 E.02307
G1 X95.101 Y72.853 E1.29616
G1 X95.662 Y72.853 E.02311
G1 X72.853 Y95.662 E1.32884
G1 X72.853 Y96.222 E.02307
G1 X96.222 Y72.853 E1.36147
G1 X96.783 Y72.853 E.02311
G1 X72.853 Y96.783 E1.39415
G1 X72.853 Y97.343 E.02307
G1 X97.343 Y72.853 E1.42678
G1 X97.904 Y72.853 E.02311
G1 X72.853 Y97.904 E1.45946
G1 X72.853 Y98.464 E.02307
