; generated by PrusaSlicer 2.6.1+MacOS-x64 on 2023-09-23 at 01:52:22 UTC


;
;

;
;

;
;
; 

; external perimeters extrusion width = 0.45mm
; perimeters extrusion width = 0.45mm
; infill extrusion width = 0.45mm
; solid infill extrusion width = 0.45mm
; top infill extrusion width = 0.40mm
; first layer extrusion width = 0.42mm

M73 P0 R107
M201 X2500 Y2500 Z400 E5000 ; sets maximum accelerations, mm/sec^2
M203 X180 Y180 Z12 E80 ; sets maximum feedrates, mm / sec
M204 P2000 R1250 T2500 ; sets acceleration (P, T) and retract acceleration (R), mm/sec^2
M205 X8.00 Y8.00 Z2.00 E10.00 ; sets the jerk limits, mm/sec
M205 S0 T0 ; sets the minimum extruding and travel feed rate, mm/sec
;TYPE:Custom
M862.3 P "MINI" ; printer model check
G90 ; use absolute coordinates
M83 ; extruder relative mode
M104 S170 ; set extruder temp for bed leveling
M140 S60 ; set bed temp
M109 R170 ; wait for bed leveling temp
M190 S60 ; wait for bed temp
M204 T1250 ; set travel acceleration
G28 ; home all without mesh bed level
G29 ; mesh bed leveling 
M204 T2500 ; restore travel acceleration
M104 S215 ; set extruder temp
G92 E0
G1 Y-2 X179 F2400
G1 Z3 F720
M109 S215 ; wait for extruder temp

; intro line
G1 X170 F1000
G1 Z0.2 F720
G1 X110 E8 F900
G1 X40 E10 F700
G92 E0

M221 S95 ; set flow
G21 ; set units to millimeters
G90 ; use absolute coordinates
M83 ; use relative distances for extrusion
M900 K0.2 ; Filament gcode LA 1.5
; ; Filament gcode LA 1.0
M107
;LAYER_CHANGE
;Z:0.2
;HEIGHT:0.2
;BEFORE_LAYER_CHANGE
G92 E0.0
;0.2


M73 P0 R106
G1 E-3.2 F4200
G1 Z.2 F720
;AFTER_LAYER_CHANGE
;0.2
G1 Z.4
G1 X70.478 Y70.917 F9000
G1 Z.2 F720
G1 E3.2 F2400
M204 P600
;TYPE:Skirt/Brim
;WIDTH:0.42
G1 F1200
G1 X70.958 Y70.446 E.02109
G1 X71.64 Y70.024 E.02515
G1 X72.457 Y69.774 E.02679
G1 X73 Y69.723 E.0171
G1 X107.31 Y69.743 E1.07577
G1 X108.36 Y70.024 E.03408
G1 X108.897 Y70.335 E.01946
G1 X109.522 Y70.917 E.02678
G1 X110.065 Y71.857 E.03404
G1 X110.277 Y73 E.03645
G1 X110.277 Y107 E1.06605
G1 X110.065 Y108.143 E.03645
G1 X109.522 Y109.083 E.03404
G1 X108.897 Y109.665 E.02678
G1 X108.36 Y109.976 E.01946
G1 X107.543 Y110.226 E.02679
G1 X107 Y110.277 E.0171
G1 X73 Y110.277 E1.06605
G1 X71.857 Y110.065 E.03645
G1 X70.917 Y109.522 E.03404
G1 X70.335 Y108.897 E.02678
G1 X70.024 Y108.36 E.01946
G1 X69.774 Y107.543 E.02679
G1 X69.723 Y107 E.0171
G1 X69.723 Y73 E1.06605
G1 X69.935 Y71.857 E.03645
G1 X70.448 Y70.968 E.03218
M204 P1000
; printing object 1x1x9_caliper_tail id:0 copy 0
G1 E-2.24 F4200
;WIPE_START
G1 F7200
G1 X70.958 Y70.446 E-.40442
G1 X71.64 Y70.024 E-.44444
G1 X71.832 Y69.965 E-.11114
;WIPE_END
G1 Z.4 F720
G1 X72.953 Y107.078 F9000
G1 Z.2 F720
G1 E3.2 F2400
M204 P600
;TYPE:Perimeter
;WIDTH:0.419999
G1 F1200
G1 X72.887 Y106.913 E.00557
G1 X72.887 Y73.117 E1.05965
G1 X72.922 Y72.953 E.00526
G1 X73.087 Y72.887 E.00557
G1 X106.889 Y72.892 E1.05984
G1 X107.06 Y72.936 E.00554
G1 X107.113 Y73.116 E.00588
G1 X107.113 Y106.883 E1.05874
G1 X107.078 Y107.047 E.00526
G1 X106.913 Y107.113 E.00557
G1 X73.117 Y107.113 E1.05965
G1 X73.012 Y107.09 E.00337
M204 P1000
G1 X72.583 Y107.241 F9000
M204 P600
;TYPE:External perimeter
G1 F1200
G1 X72.51 Y106.961 E.00907
G1 X72.51 Y73.117 E1.06115
G1 X72.583 Y72.759 E.01146
G1 X72.759 Y72.583 E.0078
G1 X73.039 Y72.51 E.00907
G1 X106.889 Y72.515 E1.06134
G1 X107.24 Y72.582 E.0112
G1 X107.417 Y72.759 E.00785
G1 X107.49 Y73.116 E.01143
G1 X107.49 Y106.883 E1.05874
G1 X107.417 Y107.241 E.01146
G1 X107.241 Y107.417 E.0078
G1 X106.961 Y107.49 E.00907
G1 X73.117 Y107.49 E1.06115
G1 X72.759 Y107.417 E.01146
G1 X72.626 Y107.284 E.0059
M204 P1000
G1 X72.722 Y106.987 F9000
G1 E-2.24 F4200
;WIPE_START
G1 F7200
G1 X72.51 Y106.961 E-.19019
G1 X72.51 Y105.572 E-.76981
;WIPE_END
G1 Z.4 F720
G1 X106.172 Y73.062 F9000
G1 Z.2 F720
G1 E3.2 F2400
M204 P600
;TYPE:Solid infill
;WIDTH:0.420526
G1 F1200
G1 X106.765 Y73.656 E.02635
G1 X106.765 Y74.19 E.01677
G1 X105.807 Y73.231 E.04256
G1 X105.273 Y73.231 E.01677
G1 X106.765 Y74.724 E.06627
G1 X106.765 Y75.258 E.01677
G1 X104.739 Y73.231 E.08998
G1 X104.205 Y73.231 E.01677
G1 X106.765 Y75.792 E.1137
G1 X106.765 Y76.326 E.01677
G1 X103.671 Y73.231 E.13741
G1 X103.137 Y73.231 E.01677
G1 X106.765 Y76.86 E.16112
G1 X106.765 Y77.394 E.01677
G1 X102.603 Y73.231 E.18483
G1 X102.069 Y73.231 E.01677
G1 X106.765 Y77.928 E.20854
G1 X106.765 Y78.462 E.01677
G1 X101.534 Y73.231 E.23228
G1 X101 Y73.231 E.01677
G1 X106.766 Y78.996 E.25601
G1 X106.766 Y79.53 E.01677
G1 X100.466 Y73.231 E.27972
G1 X99.932 Y73.23 E.01677
G1 X106.766 Y80.064 E.30345
G1 X106.766 Y80.598 E.01677
G1 X99.398 Y73.23 E.32717
G1 X98.864 Y73.23 E.01677
G1 X106.766 Y81.132 E.35088
G1 X106.766 Y81.666 E.01677
G1 X98.33 Y73.23 E.37459
G1 X97.796 Y73.23 E.01677
G1 X106.766 Y82.2 E.3983
G1 X106.766 Y82.734 E.01677
G1 X97.262 Y73.23 E.42201
G1 X96.728 Y73.23 E.01677
G1 X106.766 Y83.268 E.44572
G1 X106.766 Y83.802 E.01677
G1 X96.193 Y73.23 E.46946
G1 X95.659 Y73.23 E.01677
G1 X106.766 Y84.336 E.49317
G1 X106.766 Y84.87 E.01677
G1 X95.125 Y73.23 E.51688
G1 X94.591 Y73.23 E.01677
G1 X106.766 Y85.404 E.54059
G1 X106.766 Y85.938 E.01677
G1 X94.057 Y73.23 E.5643
G1 X93.523 Y73.23 E.01677
G1 X106.766 Y86.472 E.58801
G1 X106.766 Y87.006 E.01677
G1 X92.989 Y73.229 E.61175
G1 X92.455 Y73.229 E.01677
G1 X106.766 Y87.54 E.63546
G1 X106.766 Y88.074 E.01677
G1 X91.921 Y73.229 E.65917
G1 X91.387 Y73.229 E.01677
G1 X106.766 Y88.608 E.68288
G1 X106.766 Y89.142 E.01677
G1 X90.853 Y73.229 E.70659
G1 X90.318 Y73.229 E.0168
G1 X106.766 Y89.676 E.73033
G1 X106.766 Y90.21 E.01677
G1 X89.784 Y73.229 E.75404
G1 X89.251 Y73.229 E.01674
G1 X106.766 Y90.744 E.77773
G1 X106.766 Y91.278 E.01677
G1 X88.717 Y73.229 E.80144
G1 X88.183 Y73.23 E.01677
G1 X106.766 Y91.812 E.82513
G1 X106.766 Y92.346 E.01677
M73 P1 R106
G1 X87.649 Y73.23 E.84884
G1 X87.115 Y73.23 E.01677
G1 X106.766 Y92.88 E.87255
G1 X106.766 Y93.415 E.0168
G1 X86.581 Y73.23 E.89629
G1 X86.047 Y73.23 E.01677
M73 P1 R105
G1 X106.766 Y93.949 E.92
G1 X106.766 Y94.483 E.01677
G1 X85.514 Y73.23 E.94369
G1 X84.98 Y73.23 E.01677
G1 X106.766 Y95.017 E.9674
G1 X106.766 Y95.551 E.01677
G1 X84.446 Y73.231 E.99109
G1 X83.912 Y73.231 E.01677
G1 X106.766 Y96.085 E1.0148
G1 X106.766 Y96.619 E.01677
G1 X83.378 Y73.231 E1.03851
G1 X82.844 Y73.231 E.01677
G1 X106.766 Y97.153 E1.06222
G1 X106.766 Y97.687 E.01677
G1 X82.31 Y73.231 E1.08593
G1 X81.777 Y73.231 E.01674
G1 X106.766 Y98.221 E1.10962
G1 X106.766 Y98.755 E.01677
G1 X81.243 Y73.232 E1.13331
G1 X80.709 Y73.232 E.01677
G1 X106.766 Y99.289 E1.15702
G1 X106.766 Y99.823 E.01677
G1 X80.175 Y73.232 E1.18074
G1 X79.641 Y73.232 E.01677
G1 X106.766 Y100.357 E1.20445
G1 X106.766 Y100.891 E.01677
G1 X79.107 Y73.232 E1.22816
G1 X78.573 Y73.232 E.01677
G1 X106.766 Y101.425 E1.25187
G1 X106.766 Y101.959 E.01677
G1 X78.04 Y73.233 E1.27554
G1 X77.506 Y73.233 E.01677
G1 X106.766 Y102.493 E1.29925
G1 X106.766 Y103.027 E.01677
G1 X76.972 Y73.233 E1.32296
G1 X76.438 Y73.233 E.01677
G1 X106.766 Y103.561 E1.34667
G1 X106.766 Y104.095 E.01677
G1 X75.904 Y73.233 E1.37038
G1 X75.37 Y73.233 E.01677
G1 X106.766 Y104.629 E1.39409
G1 X106.766 Y105.163 E.01677
G1 X74.836 Y73.233 E1.41781
G1 X74.303 Y73.234 E.01674
G1 X106.766 Y105.697 E1.44147
G1 X106.766 Y106.231 E.01677
G1 X73.769 Y73.234 E1.46518
G1 X73.235 Y73.234 E.01677
G1 X106.766 Y106.766 E1.48892
G1 X106.233 Y106.766 E.01674
G1 X73.234 Y73.767 E1.46527
G1 X73.234 Y74.301 E.01677
G1 X105.699 Y106.766 E1.44156
G1 X105.165 Y106.766 E.01677
G1 X73.234 Y74.835 E1.41785
G1 X73.234 Y75.369 E.01677
G1 X104.631 Y106.766 E1.39414
G1 X104.097 Y106.766 E.01677
G1 X73.234 Y75.903 E1.37043
G1 X73.234 Y76.437 E.01677
M73 P2 R104
G1 X103.563 Y106.766 E1.34672
G1 X103.029 Y106.766 E.01677
G1 X73.234 Y76.971 E1.323
G1 X73.234 Y77.505 E.01677
G1 X102.495 Y106.766 E1.29929
G1 X101.961 Y106.766 E.01677
G1 X73.234 Y78.039 E1.27558
G1 X73.234 Y78.573 E.01677
G1 X101.427 Y106.766 E1.25187
G1 X100.893 Y106.766 E.01677
G1 X73.234 Y79.107 E1.22816
G1 X73.234 Y79.641 E.01677
G1 X100.359 Y106.766 E1.20445
G1 X99.825 Y106.766 E.01677
G1 X73.234 Y80.175 E1.18074
G1 X73.234 Y80.709 E.01677
G1 X99.291 Y106.766 E1.15702
G1 X98.757 Y106.766 E.01677
G1 X73.234 Y81.243 E1.13331
G1 X73.234 Y81.777 E.01677
G1 X98.223 Y106.766 E1.1096
G1 X97.689 Y106.766 E.01677
G1 X73.234 Y82.311 E1.08589
G1 X73.234 Y82.845 E.01677
G1 X97.155 Y106.766 E1.06218
G1 X96.621 Y106.766 E.01677
G1 X73.234 Y83.379 E1.03847
G1 X73.234 Y83.913 E.01677
G1 X96.087 Y106.766 E1.01475
G1 X95.553 Y106.766 E.01677
G1 X73.234 Y84.447 E.99104
G1 X73.234 Y84.981 E.01677
G1 X95.019 Y106.766 E.96733
G1 X94.485 Y106.766 E.01677
G1 X73.234 Y85.515 E.94362
G1 X73.234 Y86.049 E.01677
G1 X93.951 Y106.766 E.91991
G1 X93.417 Y106.766 E.01677
G1 X73.234 Y86.583 E.8962
G1 X73.234 Y87.118 E.0168
G1 X92.883 Y106.766 E.87246
G1 X92.348 Y106.766 E.0168
G1 X73.234 Y87.652 E.84873
G1 X73.234 Y88.186 E.01677
G1 X91.814 Y106.766 E.82502
G1 X91.28 Y106.766 E.01677
G1 X73.234 Y88.72 E.80131
G1 X73.234 Y89.254 E.01677
G1 X90.746 Y106.766 E.7776
G1 X90.212 Y106.766 E.01677
G1 X73.234 Y89.788 E.75388
G1 X73.234 Y90.322 E.01677
G1 X89.678 Y106.766 E.73017
G1 X89.144 Y106.766 E.01677
G1 X73.234 Y90.856 E.70646
G1 X73.234 Y91.39 E.01677
G1 X88.61 Y106.766 E.68275
G1 X88.076 Y106.766 E.01677
G1 X73.234 Y91.924 E.65904
G1 X73.234 Y92.458 E.01677
G1 X87.542 Y106.766 E.63533
G1 X87.008 Y106.766 E.01677
G1 X73.234 Y92.992 E.61161
G1 X73.234 Y93.526 E.01677
G1 X86.474 Y106.766 E.5879
G1 X85.94 Y106.766 E.01677
G1 X73.234 Y94.06 E.56419
G1 X73.234 Y94.594 E.01677
G1 X85.406 Y106.766 E.54048
G1 X84.872 Y106.766 E.01677
G1 X73.234 Y95.128 E.51677
G1 X73.234 Y95.662 E.01677
G1 X84.338 Y106.766 E.49306
G1 X83.804 Y106.766 E.01677
G1 X73.234 Y96.196 E.46935
G1 X73.234 Y96.73 E.01677
G1 X83.27 Y106.766 E.44563
G1 X82.736 Y106.766 E.01677
G1 X73.234 Y97.264 E.42192
G1 X73.234 Y97.798 E.01677
G1 X82.202 Y106.766 E.39821
G1 X81.668 Y106.766 E.01677
M73 P2 R103
G1 X73.234 Y98.332 E.3745
G1 X73.234 Y98.866 E.01677
G1 X81.134 Y106.766 E.35079
G1 X80.6 Y106.766 E.01677
G1 X73.234 Y99.4 E.32708
G1 X73.234 Y99.934 E.01677
G1 X80.066 Y106.766 E.30337
G1 X79.532 Y106.766 E.01677
G1 X73.234 Y100.468 E.27965
G1 X73.234 Y101.002 E.01677
G1 X78.998 Y106.766 E.25594
G1 X78.464 Y106.766 E.01677
G1 X73.234 Y101.536 E.23223
G1 X73.234 Y102.07 E.01677
G1 X77.93 Y106.766 E.20852
G1 X77.396 Y106.766 E.01677
G1 X73.234 Y102.604 E.18481
G1 X73.234 Y103.138 E.01677
G1 X76.862 Y106.766 E.1611
G1 X76.328 Y106.766 E.01677
G1 X73.234 Y103.672 E.13738
M73 P3 R103
G1 X73.234 Y104.206 E.01677
G1 X75.794 Y106.766 E.11367
G1 X75.26 Y106.766 E.01677
G1 X73.234 Y104.74 E.08996
G1 X73.234 Y105.274 E.01677
G1 X74.726 Y106.766 E.06625
G1 X74.192 Y106.766 E.01677
G1 X73.234 Y105.808 E.04254
G1 X73.234 Y106.342 E.01677
G1 X73.828 Y106.936 E.02638
M204 P1000
; stop printing object 1x1x9_caliper_tail id:0 copy 0
M106 S255
;LAYER_CHANGE
;Z:0.45
;HEIGHT:0.25
;BEFORE_LAYER_CHANGE
G92 E0.0
;0.45


G1 E-2.24 F4200
;WIPE_START
G1 F7200
G1 X73.234 Y106.342 E-.46552
G1 X73.234 Y105.808 E-.29592
G1 X73.487 Y106.061 E-.19856
;WIPE_END
G1 Z.4 F720
G1 Z.45
;AFTER_LAYER_CHANGE
;0.45
M104 S200 ; set temperature
; printing object 1x1x9_caliper_tail id:0 copy 0
G1 Z.65
G1 X72.568 Y107.249 F9000
G1 Z.45 F720
G1 E3.2 F2400
;TYPE:Perimeter
;WIDTH:0.449999
G1 F3300
G1 X72.496 Y106.959 E.01231
G1 X72.496 Y73.041 E1.39728
G1 X72.568 Y72.751 E.01231
G1 X72.751 Y72.568 E.01066
G1 X73.041 Y72.496 E.01231
G1 X106.921 Y72.496 E1.39571
G1 X107.129 Y72.519 E.00862
G1 X107.352 Y72.648 E.01061
G1 X107.456 Y72.811 E.00797
G1 X107.504 Y73.079 E.01122
G1 X107.504 Y106.959 E1.39571
G1 X107.432 Y107.249 E.01231
G1 X107.249 Y107.432 E.01066
G1 X106.959 Y107.504 E.01231
G1 X73.041 Y107.504 E1.39728
G1 X72.751 Y107.432 E.01231
G1 X72.611 Y107.292 E.00816
G1 X72.234 Y107.429 F9000
M204 P800
;TYPE:External perimeter
G1 F1205.141

G1 X72.177 Y107.341 E.00432
G1 F1200.003
G1 X72.1 Y106.985 E.015
G1 X72.1 Y106.31 E.02781
G1 X72.1 Y73.69 E1.3438
G1 X72.1 Y73.015 E.02781
G1 X72.177 Y72.659 E.015
G1 F1205.131
G1 X72.365 Y72.365 E.01438
G1 X72.659 Y72.177 E.01438
G1 F1200
G1 X73.015 Y72.1 E.015
G1 X73.69 Y72.1 E.02781
G1 X106.246 Y72.1 E1.34117
G1 X106.921 Y72.1 E.02781
G1 X107.116 Y72.117 E.00806
G1 F1205.134
G1 X107.449 Y72.222 E.01438
G1 X107.706 Y72.458 E.01437
G1 X107.867 Y72.768 E.01439
G1 F1200.003
G1 X107.9 Y73.079 E.01288
G1 X107.9 Y73.754 E.02781
G1 X107.9 Y106.31 E1.34117
G1 X107.9 Y106.985 E.02781
G1 X107.823 Y107.341 E.015
G1 F1205.131
G1 X107.635 Y107.635 E.01438
G1 X107.341 Y107.823 E.01438
G1 F1200.003
G1 X106.985 Y107.9 E.015
G1 X106.31 Y107.9 E.02781
G1 X73.69 Y107.9 E1.3438
G1 X73.015 Y107.9 E.02781
G1 X72.659 Y107.823 E.015
G1 F1205.13
G1 X72.365 Y107.635 E.01438
G1 X72.266 Y107.48 E.00758
G1 F1247.838

M204 P1000
G1 X72.274 Y107.332 F9000
G1 E-2.24 F4200
;WIPE_START
G1 F7200
G1 X72.177 Y107.341 E-.09147
G1 X72.1 Y106.985 E-.20185
G1 X72.1 Y105.782 E-.66668
;WIPE_END
G1 Z.65 F720
G1 X72.872 Y72.82 F9000
G1 Z.45 F720
G1 E3.2 F2400
M204 P1500
;TYPE:Solid infill
;WIDTH:0.39365
G1 F6000
G1 X72.801 Y72.801 E.0026
G1 X72.82 Y72.872 E.0026
G1 X72.861 Y72.861 E.0015
;WIDTH:0.421825
G1 X73.044 Y72.857 E.007
;WIDTH:0.449999
G1 X73.227 Y72.853 E.00754
G1 X72.853 Y73.227 E.02179
G1 X72.853 Y73.788 E.02311
G1 X73.788 Y72.853 E.05447
G1 X74.348 Y72.853 E.02307
G1 X72.853 Y74.348 E.0871
G1 X72.853 Y74.909 E.02311
G1 X74.909 Y72.853 E.11978
G1 X75.469 Y72.853 E.02307
G1 X72.853 Y75.47 E.15244
G1 X72.853 Y76.03 E.02307
G1 X76.03 Y72.853 E.18509
G1 X76.59 Y72.853 E.02307
G1 X72.853 Y76.591 E.21774
G1 X72.853 Y77.151 E.02307
G1 X77.151 Y72.853 E.2504
G1 X77.711 Y72.854 E.02307
G1 X72.853 Y77.712 E.28302
G1 X72.853 Y78.272 E.02307
G1 X78.272 Y72.854 E.31568
G1 X78.832 Y72.854 E.02307
G1 X72.853 Y78.833 E.34833
G1 X72.853 Y79.393 E.02307
G1 X79.393 Y72.854 E.38099
G1 X79.953 Y72.854 E.02307
G1 X72.853 Y79.954 E.41364
G1 X72.853 Y80.514 E.02307
G1 X80.513 Y72.854 E.44627
G1 X81.074 Y72.854 E.02311
G1 X72.853 Y81.075 E.47895
G1 X72.853 Y81.635 E.02307
G1 X81.634 Y72.854 E.51158
G1 X82.195 Y72.854 E.02311
G1 X72.853 Y82.196 E.54426
G1 X72.853 Y82.756 E.02307
G1 X82.755 Y72.854 E.57689
G1 X83.316 Y72.854 E.02311
G1 X72.853 Y83.317 E.60957
G1 X72.853 Y83.877 E.02307
G1 X83.876 Y72.854 E.64219
G1 X84.437 Y72.854 E.02311
G1 X72.853 Y84.438 E.67488
G1 X72.853 Y84.998 E.02307
G1 X84.997 Y72.854 E.7075
G1 X85.558 Y72.854 E.02311
G1 X72.853 Y85.559 E.74019
G1 X72.853 Y86.119 E.02307
G1 X86.118 Y72.854 E.77281
G1 X86.679 Y72.854 E.02311
G1 X72.853 Y86.68 E.8055
G1 X72.853 Y87.24 E.02307
G1 X87.239 Y72.854 E.83812
G1 X87.8 Y72.854 E.02311
G1 X72.853 Y87.801 E.8708
G1 X72.853 Y88.362 E.02311
G1 X88.36 Y72.855 E.90343
G1 X88.921 Y72.855 E.02311
G1 X72.853 Y88.922 E.93608
G1 X72.853 Y89.483 E.02311
G1 X89.481 Y72.855 E.96874
G1 X90.041 Y72.855 E.02307
G1 X72.853 Y90.043 E1.00136
G1 X72.853 Y90.604 E.02311
G1 X90.602 Y72.855 E1.03405
G1 X91.162 Y72.855 E.02307
G1 X72.853 Y91.164 E1.06667
G1 X72.853 Y91.725 E.02311
G1 X91.723 Y72.855 E1.09936
G1 X92.283 Y72.855 E.02307
G1 X72.853 Y92.285 E1.13198
G1 X72.853 Y92.846 E.02311
G1 X92.844 Y72.855 E1.16467
G1 X93.404 Y72.855 E.02307
G1 X72.853 Y93.406 E1.19729
G1 X72.853 Y93.967 E.02311
G1 X93.965 Y72.855 E1.22997
G1 X94.525 Y72.855 E.02307
G1 X72.853 Y94.527 E1.2626
G1 X72.853 Y95.088 E.02311
G1 X95.086 Y72.855 E1.29528
G1 X95.646 Y72.855 E.02307
G1 X72.853 Y95.648 E1.32791
G1 X72.853 Y96.209 E.02311
G1 X96.207 Y72.855 E1.36059
G1 X96.767 Y72.855 E.02307
G1 X72.853 Y96.769 E1.39322
G1 X72.853 Y97.33 E.02311
G1 X97.328 Y72.855 E1.4259
G1 X97.888 Y72.855 E.02307
G1 X72.853 Y97.89 E1.45853
G1 X72.853 Y98.451 E.02311
G1 X98.448 Y72.856 E1.49115
G1 X99.009 Y72.856 E.02311
G1 X72.853 Y99.011 E1.52381
G1 X72.853 Y99.572 E.02311
G1 X99.569 Y72.856 E1.55646
G1 X100.13 Y72.856 E.02311
G1 X72.853 Y100.132 E1.58912
G1 X72.853 Y100.693 E.02311
G1 X100.69 Y72.856 E1.62177
G1 X101.251 Y72.856 E.02311
G1 X72.853 Y101.254 E1.65445
G1 X72.853 Y101.814 E.02307
G1 X101.811 Y72.856 E1.68708
G1 X102.372 Y72.856 E.02311
