; generated by PrusaSlicer 2.6.1+MacOS-x64 on 2023-09-19 at 06:12:33 UTC


;
;

;
;
; 

; external perimeters extrusion width = 0.45mm
; perimeters extrusion width = 0.45mm
; infill extrusion width = 0.45mm
; solid infill extrusion width = 0.45mm
; top infill extrusion width = 0.40mm
; first layer extrusion width = 0.42mm

M73 P0 R123
M201 X2500 Y2500 Z400 E5000 ; sets maximum accelerations, mm/sec^2
M203 X180 Y180 Z12 E80 ; sets maximum feedrates, mm / sec
M204 P2000 R1250 T2500 ; sets acceleration (P, T) and retract acceleration (R), mm/sec^2
M205 X8.00 Y8.00 Z2.00 E10.00 ; sets the jerk limits, mm/sec
M205 S0 T0 ; sets the minimum extruding and travel feed rate, mm/sec
;TYPE:Custom
M862.3 P "MINI" ; printer model check
G90 ; use absolute coordinates
M83 ; extruder relative mode
M104 S170 ; set extruder temp for bed leveling
M140 S60 ; set bed temp
M109 R170 ; wait for bed leveling temp
M190 S60 ; wait for bed temp
M204 T1250 ; set travel acceleration
G28 ; home all without mesh bed level
G29 ; mesh bed leveling 
M204 T2500 ; restore travel acceleration
M104 S215 ; set extruder temp
G92 E0
G1 Y-2 X179 F2400
G1 Z3 F720
M109 S215 ; wait for extruder temp

; intro line
G1 X170 F1000
G1 Z0.2 F720
G1 X110 E8 F900
G1 X40 E10 F700
G92 E0

M221 S95 ; set flow
G21 ; set units to millimeters
G90 ; use absolute coordinates
M83 ; use relative distances for extrusion
M900 K0.2 ; Filament gcode LA 1.5
; ; Filament gcode LA 1.0
M107
;LAYER_CHANGE
;Z:0.2
;HEIGHT:0.2
;BEFORE_LAYER_CHANGE
G92 E0.0
;0.2


G1 E-3.2 F4200
G1 Z.2 F720
;AFTER_LAYER_CHANGE
;0.2
G1 Z.4
G1 X70.478 Y70.917 F9000
G1 Z.2 F720
G1 E3.2 F2400
M204 P600
;TYPE:Skirt/Brim
;WIDTH:0.42
G1 F1200
G1 X70.958 Y70.446 E.02109
G1 X71.64 Y70.024 E.02515
G1 X72.457 Y69.774 E.02679
G1 X73 Y69.723 E.0171
G1 X107.31 Y69.743 E1.07577
G1 X108.36 Y70.024 E.03408
G1 X108.897 Y70.335 E.01946
G1 X109.522 Y70.916 E.02676
G1 X110.065 Y71.857 E.03406
G1 X110.277 Y73 E.03645
G1 X110.277 Y107 E1.06605
G1 X110.065 Y108.143 E.03645
G1 X109.522 Y109.083 E.03404
G1 X108.897 Y109.665 E.02678
G1 X108.36 Y109.976 E.01946
G1 X107.543 Y110.226 E.02679
G1 X107 Y110.277 E.0171
G1 X73 Y110.277 E1.06605
G1 X71.857 Y110.065 E.03645
G1 X70.917 Y109.522 E.03404
G1 X70.335 Y108.897 E.02678
G1 X70.024 Y108.36 E.01946
G1 X69.774 Y107.543 E.02679
G1 X69.723 Y107 E.0171
G1 X69.723 Y73 E1.06605
G1 X69.935 Y71.857 E.03645
G1 X70.448 Y70.968 E.03218
M204 P1000
; printing object 1x1x12 v1 id:0 copy 0
G1 E-2.24 F4200
;WIPE_START
G1 F7200
G1 X70.958 Y70.446 E-.40442
G1 X71.64 Y70.024 E-.44444
G1 X71.832 Y69.965 E-.11114
;WIPE_END
G1 Z.4 F720
G1 X107.035 Y77.81 F9000
G1 Z.2 F720
G1 E3.2 F2400
M204 P600
;TYPE:Perimeter
;WIDTH:0.575458
G1 F1200
G1 X107.052 Y77.895 E.00384
;WIDTH:0.542392
G1 X107.072 Y78.129 E.00975
;WIDTH:0.501595
G1 X107.093 Y78.363 E.00896
;WIDTH:0.460797
G1 X107.113 Y78.597 E.00816
;WIDTH:0.419999
G1 X107.113 Y101.403 E.71506
;WIDTH:0.46969
G1 X107.088 Y101.681 E.0099
;WIDTH:0.51938
G1 X107.063 Y101.958 E.01102
;WIDTH:0.56907
G1 X107.038 Y102.236 E.01221
G1 X106.989 Y102.117 E.00563
;WIDTH:0.520046
G1 X106.888 Y101.863 E.01084
;WIDTH:0.486697
G1 X106.787 Y101.61 E.01005
;WIDTH:0.453348
G1 X106.686 Y101.356 E.00933
;WIDTH:0.419999
G1 X106.279 Y100.648 E.02561
G1 X105.739 Y100.036 E.02559
G1 X105.086 Y99.545 E.02562
G1 X104.348 Y99.196 E.0256
G1 X103.547 Y99.002 E.02584
G1 X102.691 Y98.98 E.02685
G1 X101.933 Y99.108 E.0241
G1 X101.171 Y99.402 E.02561
G1 X100.485 Y99.844 E.02559
G1 X99.901 Y100.415 E.02561
G1 X99.444 Y101.092 E.02561
G1 X99.133 Y101.847 E.0256
G1 X98.98 Y102.649 E.0256
G1 X98.991 Y103.465 E.02559
G1 X99.167 Y104.263 E.02562
G1 X99.5 Y105.008 E.02559
G1 X99.975 Y105.672 E.0256
G1 X100.575 Y106.226 E.02561
G1 X101.274 Y106.648 E.0256
;WIDTH:0.468297
G1 X101.463 Y106.74 E.00743
;WIDTH:0.516595
G1 X101.652 Y106.832 E.00828
;WIDTH:0.564893
G1 X101.841 Y106.924 E.00912
;WIDTH:0.61319
G1 X102.029 Y107.016 E.00992
G1 X101.961 Y107.033 E.00332
;WIDTH:0.580147
G1 X101.894 Y107.049 E.00308
;WIDTH:0.547103
G1 X101.659 Y107.071 E.00989
;WIDTH:0.504735
G1 X101.425 Y107.092 E.00902
;WIDTH:0.462367
G1 X101.191 Y107.113 E.00819
;WIDTH:0.419999
G1 X78.387 Y107.113 E.715
;WIDTH:0.461394
G1 X78.136 Y107.092 E.00876
;WIDTH:0.502789
G1 X77.885 Y107.072 E.00963
;WIDTH:0.544184
G1 X77.634 Y107.051 E.0105
G1 X77.681 Y107.033 E.0021
;WIDTH:0.5285
G1 X77.939 Y106.943 E.01103
;WIDTH:0.492333
G1 X78.197 Y106.854 E.0102
;WIDTH:0.456166
G1 X78.455 Y106.764 E.00939
;WIDTH:0.419999
G1 X79.183 Y106.394 E.0256
G1 X79.822 Y105.885 E.02561
G1 X80.345 Y105.258 E.0256
G1 X80.731 Y104.539 E.02559
G1 X80.964 Y103.756 E.02561
G1 X81.035 Y102.943 E.02559
G1 X80.941 Y102.132 E.0256
G1 X80.686 Y101.356 E.02561
G1 X80.279 Y100.648 E.02561
G1 X79.739 Y100.036 E.02559
G1 X79.086 Y99.545 E.02562
G1 X78.348 Y99.196 E.0256
G1 X77.547 Y99.002 E.02584
G1 X76.691 Y98.98 E.02685
G1 X75.933 Y99.108 E.0241
G1 X75.171 Y99.402 E.02561
G1 X74.485 Y99.844 E.02559
G1 X73.901 Y100.415 E.02561
G1 X73.444 Y101.092 E.02561
G1 X73.133 Y101.847 E.0256
;WIDTH:0.455056
G1 X73.068 Y102.072 E.00803
;WIDTH:0.490113
G1 X73.004 Y102.298 E.00873
;WIDTH:0.52517
G1 X72.94 Y102.524 E.00942
G1 X72.922 Y102.29 E.00941
;WIDTH:0.490113
G1 X72.905 Y102.056 E.00872
;WIDTH:0.455056
G1 X72.887 Y101.822 E.00804
;WIDTH:0.419999
G1 X72.887 Y78.178 E.74134
;WIDTH:0.468604
G1 X72.913 Y77.827 E.01246
;WIDTH:0.517208
G1 X72.94 Y77.476 E.01388
G1 X73.053 Y77.869 E.01613
;WIDTH:0.468604
G1 X73.167 Y78.263 E.01452
;WIDTH:0.419999
G1 X73.5 Y79.008 E.02559
G1 X73.975 Y79.672 E.0256
G1 X74.575 Y80.226 E.02561
G1 X75.274 Y80.648 E.0256
G1 X76.044 Y80.921 E.02562
G1 X76.853 Y81.033 E.02561
G1 X77.668 Y80.98 E.02561
G1 X78.348 Y80.804 E.02202
G1 X79.183 Y80.394 E.02917
G1 X79.822 Y79.885 E.02561
G1 X80.345 Y79.258 E.0256
G1 X80.731 Y78.539 E.02559
G1 X80.964 Y77.756 E.02561
G1 X81.035 Y76.943 E.02559
G1 X80.941 Y76.132 E.0256
G1 X80.686 Y75.356 E.02561
G1 X80.279 Y74.648 E.02561
G1 X79.739 Y74.036 E.02559
G1 X79.086 Y73.545 E.02562
G1 X78.348 Y73.196 E.0256
;WIDTH:0.464736
G1 X78.127 Y73.116 E.00824
;WIDTH:0.509472
G1 X77.905 Y73.035 E.00917
;WIDTH:0.554208
G1 X77.684 Y72.955 E.00999
G1 X77.919 Y72.933 E.01003
;WIDTH:0.509472
G1 X78.153 Y72.91 E.00912
;WIDTH:0.464736
G1 X78.387 Y72.888 E.00824
;WIDTH:0.419999
G1 X101.192 Y72.891 E.71503
;WIDTH:0.467783
G1 X101.398 Y72.915 E.00733
;WIDTH:0.515566
G1 X101.604 Y72.939 E.00815
;WIDTH:0.563349
G1 X101.81 Y72.963 E.00897
;WIDTH:0.611132
G1 X102.015 Y72.987 E.00975
G1 X101.963 Y73.016 E.00281
;WIDTH:0.581947
G1 X101.91 Y73.046 E.00273
;WIDTH:0.552761
G1 X101.664 Y73.164 E.01157
;WIDTH:0.508507
G1 X101.418 Y73.283 E.01058
;WIDTH:0.464253
G1 X101.171 Y73.402 E.00961
;WIDTH:0.419999
G1 X100.485 Y73.844 E.02559
G1 X99.901 Y74.415 E.02561
G1 X99.444 Y75.092 E.02561
G1 X99.133 Y75.847 E.0256
G1 X98.98 Y76.649 E.0256
G1 X98.991 Y77.465 E.02559
G1 X99.167 Y78.263 E.02562
G1 X99.5 Y79.008 E.02559
G1 X99.975 Y79.672 E.0256
G1 X100.575 Y80.226 E.02561
G1 X101.274 Y80.648 E.0256
G1 X102.044 Y80.921 E.02562
G1 X102.853 Y81.033 E.02561
G1 X103.668 Y80.98 E.02561
G1 X104.455 Y80.764 E.02559
G1 X105.183 Y80.394 E.0256
G1 X105.822 Y79.885 E.02561
G1 X106.345 Y79.258 E.0256
G1 X106.731 Y78.539 E.02559
;WIDTH:0.458864
G1 X106.807 Y78.357 E.00682
;WIDTH:0.497729
G1 X106.883 Y78.174 E.00749
;WIDTH:0.536594
G1 X106.959 Y77.992 E.0081
;WIDTH:0.575458
G1 X107.012 Y77.866 E.00605
M204 P1000
G1 E-2.24 F4200
;WIPE_START
G1 F7200
G1 X107.052 Y77.895 E-.02738
G1 X107.072 Y78.129 E-.13015
G1 X107.093 Y78.363 E-.1302
G1 X107.113 Y78.597 E-.13015
G1 X107.113 Y79.575 E-.54212
;WIPE_END
G1 Z.4 F720
G1 X106.311 Y74.703 F9000
G1 Z.2 F720
G1 E3.2 F2400
M204 P600
;WIDTH:0.419999
G1 F1200
G1 X105.739 Y74.036 E.02755
G1 X105.086 Y73.545 E.02562
G1 X104.348 Y73.196 E.0256
;WIDTH:0.463414
G1 X104.126 Y73.116 E.00825
;WIDTH:0.506828
G1 X103.905 Y73.037 E.00905
;WIDTH:0.550242
G1 X103.684 Y72.957 E.00991
G1 X103.918 Y72.935 E.00991
;WIDTH:0.506828
G1 X104.152 Y72.913 E.00907
;WIDTH:0.463414
G1 X104.387 Y72.892 E.00825
;WIDTH:0.419999
G1 X106.889 Y72.892 E.07845
G1 X107.06 Y72.936 E.00554
G1 X107.113 Y73.116 E.00588
G1 X107.113 Y75.403 E.07171
;WIDTH:0.46969
G1 X107.088 Y75.681 E.0099
;WIDTH:0.51938
G1 X107.063 Y75.958 E.01102
;WIDTH:0.56907
G1 X107.038 Y76.236 E.01221
G1 X106.989 Y76.117 E.00563
;WIDTH:0.520046
G1 X106.888 Y75.863 E.01084
;WIDTH:0.486697
G1 X106.787 Y75.61 E.01005
;WIDTH:0.453348
G1 X106.686 Y75.356 E.00933
;WIDTH:0.419999
G1 X106.341 Y74.755 E.02173
M204 P1000
G1 X105.984 Y74.883 F9000
M204 P600
;TYPE:External perimeter
G1 F1200
G1 X106.356 Y75.539 E.02365
G1 X106.581 Y76.245 E.02323
G1 X106.66 Y76.981 E.02321
G1 X106.589 Y77.718 E.02322
G1 X106.371 Y78.426 E.02323
G1 X106.015 Y79.075 E.02321
G1 X105.536 Y79.64 E.02322
G1 X104.952 Y80.096 E.02323
G1 X104.289 Y80.426 E.02322
G1 X103.573 Y80.615 E.02322
G1 X102.834 Y80.656 E.02321
G1 X102.101 Y80.548 E.02323
G1 X101.389 Y80.288 E.02377
G1 X100.775 Y79.906 E.02267
G1 X100.235 Y79.399 E.02322
G1 X99.809 Y78.793 E.02323
G1 X99.513 Y78.114 E.02322
G1 X99.361 Y77.389 E.02323
G1 X99.357 Y76.649 E.0232
G1 X99.502 Y75.922 E.02324
G1 X99.79 Y75.24 E.02321
G1 X100.21 Y74.63 E.02322
G1 X100.745 Y74.117 E.02324
G1 X101.371 Y73.722 E.02321
G1 X102.064 Y73.461 E.02322
G1 X102.748 Y73.353 E.02171
G1 X103.533 Y73.379 E.02463
G1 X104.253 Y73.561 E.02329
G1 X104.92 Y73.884 E.02324
G1 X105.508 Y74.334 E.02322
G1 X105.945 Y74.838 E.02092
M204 P1000
G1 X106.382 Y74.846 F9000
G1 E-2.24 F4200
;WIPE_START
G1 F7200
G1 X106.356 Y75.539 E-.45032
G1 X106.581 Y76.245 E-.41063
G1 X106.6 Y76.423 E-.09905
;WIPE_END
G1 Z.4 F720
G1 X107.038 Y76.236 F9000
G1 Z.2 F720
G1 E3.2 F2400
M204 P600
;TYPE:Perimeter
;WIDTH:0.56907
G1 F1200
G1 X107.056 Y76.588 E.01542
;WIDTH:0.533436
G1 X107.074 Y76.939 E.01433
G1 X107.056 Y77.351 E.01682
;WIDTH:0.56907
G1 X107.038 Y77.764 E.01809
;WIDTH:0.575458
G1 X107.035 Y77.81 E.00204
M204 P1000
G1 E-2.24 F4200
;WIPE_START
G1 F7200
G1 X107.038 Y77.764 E-.02555
G1 X107.056 Y77.351 E-.22909
G1 X107.074 Y76.939 E-.22853
G1 X107.056 Y76.588 E-.19477
G1 X107.038 Y76.236 E-.19532
;WIPE_END
G1 E-.08674 F4200
G1 Z.4 F720
G1 X102.015 Y72.987 F9000
G1 Z.2 F720
G1 E3.2 F2400
M204 P600
;WIDTH:0.611132
G1 F1200
G1 X102.238 Y72.97 E.01057
;WIDTH:0.577084
G1 X102.461 Y72.953 E.00993
;WIDTH:0.543036
G1 X102.684 Y72.936 E.0093
;WIDTH:0.530568
G1 X103.549 Y72.947 E.03508
;WIDTH:0.550242
G1 X103.684 Y72.957 E.00571
M204 P1000
G1 E-2.24 F4200
;WIPE_START
G1 F7200
G1 X103.549 Y72.947 E-.07502
G1 X102.684 Y72.936 E-.47939
G1 X102.461 Y72.953 E-.12394
G1 X102.238 Y72.97 E-.12394
G1 X102.015 Y72.987 E-.12394
;WIPE_END
G1 E-.03377 F4200
G1 Z.4 F720
G1 X75.207 Y73.385 F9000
G1 Z.2 F720
G1 E3.2 F2400
M204 P600
;WIDTH:0.465105
G1 F1200
G1 X75.171 Y73.402 E.0014
;WIDTH:0.419999
G1 X74.485 Y73.844 E.02559
G1 X73.901 Y74.415 E.02561
G1 X73.444 Y75.092 E.02561
G1 X73.133 Y75.847 E.0256
;WIDTH:0.455057
G1 X73.068 Y76.072 E.00803
;WIDTH:0.490115
G1 X73.004 Y76.298 E.00873
;WIDTH:0.525172
G1 X72.94 Y76.524 E.00942
G1 X72.922 Y76.29 E.00941
;WIDTH:0.490115
G1 X72.905 Y76.056 E.00872
;WIDTH:0.455057
G1 X72.887 Y75.822 E.00804
;WIDTH:0.419999
G1 X72.887 Y73.117 E.08481
G1 X72.922 Y72.953 E.00526
G1 X73.087 Y72.887 E.00557
G1 X75.191 Y72.887 E.06597
;WIDTH:0.468766
G1 X75.397 Y72.912 E.00735
;WIDTH:0.517532
G1 X75.603 Y72.936 E.00818
;WIDTH:0.566298
G1 X75.809 Y72.961 E.00903
;WIDTH:0.615064
G1 X76.015 Y72.985 E.00987
G1 X75.962 Y73.015 E.0029
;WIDTH:0.58519
G1 X75.91 Y73.044 E.00268
;WIDTH:0.555315
G1 X75.664 Y73.164 E.01166
;WIDTH:0.51021
G1 X75.418 Y73.283 E.01062
;WIDTH:0.465105
G1 X75.261 Y73.359 E.00612
M204 P1000
G1 X75.359 Y73.73 F9000
M204 P600
;TYPE:External perimeter
;WIDTH:0.419999
G1 F1200
G1 X76.064 Y73.461 E.02366
G1 X76.748 Y73.353 E.02171
G1 X77.533 Y73.379 E.02463
G1 X78.253 Y73.561 E.02329
G1 X78.92 Y73.884 E.02324
G1 X79.508 Y74.334 E.02322
G1 X79.993 Y74.893 E.0232
G1 X80.356 Y75.539 E.02323
G1 X80.581 Y76.245 E.02323
G1 X80.66 Y76.981 E.02321
G1 X80.589 Y77.718 E.02322
G1 X80.371 Y78.426 E.02323
G1 X80.015 Y79.075 E.02321
G1 X79.536 Y79.64 E.02322
G1 X78.952 Y80.096 E.02323
G1 X78.289 Y80.426 E.02322
G1 X77.573 Y80.615 E.02322
G1 X76.834 Y80.656 E.02321
G1 X76.101 Y80.548 E.02323
G1 X75.405 Y80.295 E.02322
G1 X74.775 Y79.906 E.02322
G1 X74.235 Y79.399 E.02322
G1 X73.809 Y78.793 E.02323
G1 X73.513 Y78.114 E.02322
G1 X73.361 Y77.389 E.02323
G1 X73.357 Y76.649 E.0232
G1 X73.502 Y75.922 E.02324
G1 X73.79 Y75.24 E.02321
G1 X74.21 Y74.63 E.02322
G1 X74.744 Y74.117 E.02322
G1 X75.308 Y73.762 E.0209
M204 P1000
G1 X75.383 Y73.33 F9000
G1 E-2.24 F4200
;WIPE_START
G1 F7200
G1 X76.064 Y73.461 E-.45094
G1 X76.748 Y73.353 E-.38375
G1 X76.974 Y73.36 E-.12531
;WIPE_END
G1 Z.4 F720
G1 X72.938 Y77.458 F9000
G1 Z.2 F720
G1 E3.2 F2400
M204 P600
;TYPE:Perimeter
;WIDTH:0.52179
G1 F1200
G1 X72.933 Y76.649 E.03221
;WIDTH:0.525172
G1 X72.94 Y76.524 E.00502
M204 P1000
G1 E-2.24 F4200
;WIPE_START
G1 F7200
G1 X72.933 Y76.649 E-.06938
G1 X72.938 Y77.458 E-.44833
;WIPE_END
G1 E-.44229 F4200
G1 Z.4 F720
G1 X76.015 Y72.985 F9000
G1 Z.2 F720
G1 E3.2 F2400
M204 P600
;WIDTH:0.615064
G1 F1200
G1 X76.238 Y72.968 E.01064
;WIDTH:0.581014
G1 X76.461 Y72.951 E.01001
;WIDTH:0.546964
G1 X76.684 Y72.934 E.00937
;WIDTH:0.534474
G1 X77.549 Y72.945 E.03536
;WIDTH:0.554208
G1 X77.684 Y72.955 E.00576
M204 P1000
G1 E-2.24 F4200
;WIPE_START
G1 F7200
G1 X77.549 Y72.945 E-.07502
G1 X76.684 Y72.934 E-.47939
G1 X76.461 Y72.951 E-.12394
G1 X76.238 Y72.968 E-.12394
G1 X76.015 Y72.985 E-.12394
;WIPE_END
G1 E-.03377 F4200
G1 Z.4 F720
G1 X72.938 Y103.458 F9000
G1 Z.2 F720
G1 E3.2 F2400
M204 P600
;WIDTH:0.52179
G1 F1200
G1 X72.94 Y103.476 E.00072
;WIDTH:0.517208
G1 X73.053 Y103.869 E.01613
;WIDTH:0.468604
G1 X73.167 Y104.263 E.01452
;WIDTH:0.419999
G1 X73.5 Y105.008 E.02559
G1 X73.901 Y105.585 E.02203
G1 X74.575 Y106.226 E.02916
G1 X75.274 Y106.648 E.0256
;WIDTH:0.468298
G1 X75.463 Y106.74 E.00743
;WIDTH:0.516596
G1 X75.652 Y106.832 E.00828
;WIDTH:0.564894
G1 X75.841 Y106.924 E.00912
;WIDTH:0.613192
G1 X76.029 Y107.016 E.00992
G1 X75.961 Y107.033 E.00332
;WIDTH:0.580149
G1 X75.894 Y107.049 E.00308
;WIDTH:0.547105
G1 X75.659 Y107.071 E.0099
;WIDTH:0.504737
G1 X75.425 Y107.092 E.00902
;WIDTH:0.462368
G1 X75.191 Y107.113 E.00819
;WIDTH:0.419999
G1 X73.117 Y107.113 E.06503
G1 X72.953 Y107.078 E.00526
G1 X72.887 Y106.913 E.00557
G1 X72.887 Y104.178 E.08575
;WIDTH:0.45393
G1 X72.904 Y103.938 E.00822
;WIDTH:0.48786
G1 X72.921 Y103.698 E.0089
;WIDTH:0.52179
G1 X72.934 Y103.518 E.00719
M204 P1000
G1 X73.363 Y103.403 F9000
M204 P600
;TYPE:External perimeter
;WIDTH:0.419999
G1 F1200
G1 X73.357 Y102.649 E.02364
G1 X73.502 Y101.922 E.02324
G1 X73.79 Y101.24 E.02321
G1 X74.21 Y100.63 E.02322
G1 X74.744 Y100.117 E.02322
G1 X75.371 Y99.722 E.02324
G1 X76.064 Y99.461 E.02322
G1 X76.748 Y99.353 E.02171
G1 X77.533 Y99.379 E.02463
G1 X78.253 Y99.561 E.02329
G1 X78.92 Y99.884 E.02324
G1 X79.508 Y100.334 E.02322
G1 X79.993 Y100.893 E.0232
G1 X80.358 Y101.542 E.02335
G1 X80.581 Y102.245 E.02312
G1 X80.66 Y102.981 E.02321
G1 X80.589 Y103.718 E.02322
G1 X80.371 Y104.426 E.02323
G1 X80.015 Y105.075 E.02321
G1 X79.536 Y105.64 E.02322
G1 X78.952 Y106.096 E.02323
G1 X78.289 Y106.426 E.02322
G1 X77.573 Y106.615 E.02322
G1 X76.834 Y106.656 E.02321
G1 X76.101 Y106.548 E.02323
G1 X75.405 Y106.295 E.02322
G1 X74.775 Y105.906 E.02322
G1 X74.21 Y105.37 E.02442
G1 X73.809 Y104.793 E.02203
G1 X73.513 Y104.114 E.02322
G1 X73.376 Y103.462 E.02089
M204 P1000
G1 X72.997 Y103.242 F9000
G1 E-2.24 F4200
;WIPE_START
G1 F7200
G1 X73.357 Y102.649 E-.45066
G1 X73.502 Y101.922 E-.41081
G1 X73.571 Y101.758 E-.09853
;WIPE_END
G1 Z.4 F720
G1 X77.634 Y107.051 F9000
G1 Z.2 F720
G1 E3.2 F2400
M204 P600
;TYPE:Perimeter
;WIDTH:0.544184
G1 F1200
G1 X76.855 Y107.073 E.03248
;WIDTH:0.537684
G1 X76.58 Y107.054 E.01134
;WIDTH:0.575438
G1 X76.304 Y107.035 E.01225
;WIDTH:0.613192
G1 X76.029 Y107.016 E.01307
M204 P1000
G1 E-2.24 F4200
;WIPE_START
G1 F7200
G1 X76.304 Y107.035 E-.15276
G1 X76.58 Y107.054 E-.15331
G1 X76.855 Y107.073 E-.15276
