; generated by PrusaSlicer 2.6.1+MacOS-x64 on 2023-09-21 at 05:11:38 UTC


;
;

;
;

;
;
; 

; external perimeters extrusion width = 0.45mm
; perimeters extrusion width = 0.45mm
; infill extrusion width = 0.45mm
; solid infill extrusion width = 0.45mm
; top infill extrusion width = 0.40mm
; first layer extrusion width = 0.42mm

M73 P0 R232
M201 X2500 Y2500 Z400 E5000 ; sets maximum accelerations, mm/sec^2
M203 X180 Y180 Z12 E80 ; sets maximum feedrates, mm / sec
M204 P2000 R1250 T2500 ; sets acceleration (P, T) and retract acceleration (R), mm/sec^2
M205 X8.00 Y8.00 Z2.00 E10.00 ; sets the jerk limits, mm/sec
M205 S0 T0 ; sets the minimum extruding and travel feed rate, mm/sec
;TYPE:Custom
M862.3 P "MINI" ; printer model check
G90 ; use absolute coordinates
M83 ; extruder relative mode
M104 S170 ; set extruder temp for bed leveling
M140 S60 ; set bed temp
M109 R170 ; wait for bed leveling temp
M190 S60 ; wait for bed temp
M204 T1250 ; set travel acceleration
G28 ; home all without mesh bed level
G29 ; mesh bed leveling 
M204 T2500 ; restore travel acceleration
M104 S215 ; set extruder temp
G92 E0
G1 Y-2 X179 F2400
G1 Z3 F720
M109 S215 ; wait for extruder temp

; intro line
G1 X170 F1000
G1 Z0.2 F720
G1 X110 E8 F900
G1 X40 E10 F700
G92 E0

M221 S95 ; set flow
G21 ; set units to millimeters
G90 ; use absolute coordinates
M83 ; use relative distances for extrusion
M900 K0.2 ; Filament gcode LA 1.5
; ; Filament gcode LA 1.0
M107
;LAYER_CHANGE
;Z:0.2
;HEIGHT:0.2
;BEFORE_LAYER_CHANGE
G92 E0.0
;0.2


G1 E-3.2 F4200
G1 Z.2 F720
;AFTER_LAYER_CHANGE
;0.2
G1 Z.4
G1 X48.774 Y9.457 F9000
G1 Z.2 F720
G1 E3.2 F2400
M204 P600
;TYPE:Skirt/Brim
;WIDTH:0.42
G1 F1200
G1 X49.024 Y8.64 E.02679
G1 X49.478 Y7.917 E.02677
G1 X50.103 Y7.335 E.02678
G1 X50.857 Y6.935 E.02676
G1 X52 Y6.723 E.03645
G1 X128.31 Y6.743 E2.39265
G1 X129.36 Y7.024 E.03408
G1 X130.083 Y7.478 E.02677
G1 X130.522 Y7.916 E.01944
G1 X131.065 Y8.857 E.03406
G1 X131.277 Y10 E.03645
G1 X131.277 Y170 E5.01669
G1 X131.226 Y170.543 E.0171
M73 P0 R231
G1 X130.975 Y171.36 E.0268
G1 X130.522 Y172.083 E.02675
G1 X129.897 Y172.665 E.02678
G1 X129.143 Y173.065 E.02676
G1 X128 Y173.277 E.03645
G1 X52 Y173.277 E2.38293
G1 X51.457 Y173.226 E.0171
G1 X50.64 Y172.976 E.02679
G1 X49.917 Y172.522 E.02677
G1 X49.335 Y171.897 E.02678
G1 X48.935 Y171.143 E.02676
G1 X48.723 Y170 E.03645
G1 X48.723 Y10 E5.01669
G1 X48.768 Y9.517 E.01521
M204 P1000
; printing object 1x4x3_6slots_cutout v1 id:0 copy 0
G1 E-2.24 F4200
;WIPE_START
G1 F7200
G1 X49.024 Y8.64 E-.50629
G1 X49.459 Y7.947 E-.45371
;WIPE_END
G1 Z.4 F720
G1 X86.06 Y135.936 F9000
G1 Z.2 F720
G1 E3.2 F2400
M204 P600
;TYPE:Perimeter
;WIDTH:0.419999
G1 F1200
G1 X86.113 Y136.116 E.00588
G1 X86.113 Y169.883 E1.05874
G1 X86.078 Y170.047 E.00526
G1 X85.913 Y170.113 E.00557
G1 X52.117 Y170.113 E1.05965
G1 X51.953 Y170.078 E.00526
G1 X51.887 Y169.913 E.00557
G1 X51.887 Y136.117 E1.05965
G1 X51.922 Y135.953 E.00526
G1 X52.087 Y135.887 E.00557
G1 X85.889 Y135.892 E1.05984
G1 X86.002 Y135.921 E.00366
M204 P1000
G1 X86.24 Y135.582 F9000
M204 P600
;TYPE:External perimeter
G1 F1200
G1 X86.417 Y135.759 E.00785
G1 X86.49 Y136.116 E.01143
G1 X86.49 Y169.883 E1.05874
G1 X86.417 Y170.241 E.01146
G1 X86.241 Y170.417 E.0078
G1 X85.961 Y170.49 E.00907
G1 X52.117 Y170.49 E1.06115
G1 X51.759 Y170.417 E.01146
G1 X51.583 Y170.241 E.0078
G1 X51.51 Y169.961 E.00907
G1 X51.51 Y136.117 E1.06115
G1 X51.583 Y135.759 E.01146
G1 X51.759 Y135.583 E.0078
G1 X52.039 Y135.51 E.00907
G1 X85.889 Y135.515 E1.06134
G1 X86.181 Y135.571 E.00932
M204 P1000
G1 X86.24 Y135.832 F9000
G1 X85.172 Y136.062
M204 P600
;TYPE:Solid infill
;WIDTH:0.420526
G1 F1200
G1 X85.765 Y136.656 E.02635
G1 X85.765 Y137.19 E.01677
G1 X84.807 Y136.231 E.04256
G1 X84.273 Y136.231 E.01677
G1 X85.765 Y137.724 E.06627
G1 X85.765 Y138.258 E.01677
G1 X83.739 Y136.231 E.08998
G1 X83.205 Y136.231 E.01677
G1 X85.765 Y138.792 E.1137
G1 X85.765 Y139.326 E.01677
G1 X82.671 Y136.231 E.13741
G1 X82.137 Y136.231 E.01677
G1 X85.765 Y139.86 E.16112
G1 X85.765 Y140.394 E.01677
G1 X81.603 Y136.231 E.18483
G1 X81.069 Y136.231 E.01677
G1 X85.765 Y140.928 E.20854
G1 X85.766 Y141.462 E.01677
G1 X80.534 Y136.231 E.2323
G1 X80 Y136.231 E.01677
G1 X85.766 Y141.996 E.25601
G1 X85.766 Y142.53 E.01677
G1 X79.466 Y136.231 E.27972
G1 X78.932 Y136.23 E.01677
G1 X85.766 Y143.064 E.30345
G1 X85.766 Y143.598 E.01677
G1 X78.398 Y136.23 E.32717
G1 X77.864 Y136.23 E.01677
G1 X85.766 Y144.132 E.35088
G1 X85.766 Y144.666 E.01677
G1 X77.33 Y136.23 E.37459
G1 X76.796 Y136.23 E.01677
G1 X85.766 Y145.2 E.3983
G1 X85.766 Y145.734 E.01677
G1 X76.262 Y136.23 E.42201
G1 X75.728 Y136.23 E.01677
G1 X85.766 Y146.268 E.44572
G1 X85.766 Y146.802 E.01677
G1 X75.193 Y136.23 E.46946
G1 X74.659 Y136.23 E.01677
G1 X85.766 Y147.336 E.49317
G1 X85.766 Y147.87 E.01677
G1 X74.125 Y136.23 E.51688
G1 X73.591 Y136.23 E.01677
G1 X85.766 Y148.404 E.54059
G1 X85.766 Y148.938 E.01677
G1 X73.057 Y136.23 E.5643
G1 X72.523 Y136.23 E.01677
G1 X85.766 Y149.472 E.58801
G1 X85.766 Y150.006 E.01677
G1 X71.989 Y136.229 E.61175
G1 X71.455 Y136.229 E.01677
G1 X85.766 Y150.54 E.63546
G1 X85.766 Y151.074 E.01677
G1 X70.921 Y136.229 E.65917
G1 X70.387 Y136.229 E.01677
G1 X85.766 Y151.608 E.68288
G1 X85.766 Y152.142 E.01677
G1 X69.853 Y136.229 E.70659
G1 X69.318 Y136.229 E.0168
G1 X85.766 Y152.676 E.73033
G1 X85.766 Y153.21 E.01677
G1 X68.784 Y136.229 E.75404
G1 X68.251 Y136.229 E.01674
G1 X85.766 Y153.744 E.77773
G1 X85.766 Y154.278 E.01677
G1 X67.717 Y136.229 E.80144
G1 X67.183 Y136.23 E.01677
G1 X85.766 Y154.812 E.82513
G1 X85.766 Y155.346 E.01677
G1 X66.649 Y136.23 E.84884
G1 X66.115 Y136.23 E.01677
G1 X85.766 Y155.88 E.87255
G1 X85.766 Y156.415 E.0168
G1 X65.581 Y136.23 E.89629
G1 X65.047 Y136.23 E.01677
G1 X85.766 Y156.949 E.92
G1 X85.766 Y157.483 E.01677
M73 P0 R230
G1 X64.514 Y136.23 E.94369
G1 X63.98 Y136.23 E.01677
G1 X85.766 Y158.017 E.9674
G1 X85.766 Y158.551 E.01677
G1 X63.446 Y136.231 E.99109
G1 X62.912 Y136.231 E.01677
G1 X85.766 Y159.085 E1.0148
G1 X85.766 Y159.619 E.01677
G1 X62.378 Y136.231 E1.03851
G1 X61.844 Y136.231 E.01677
G1 X85.766 Y160.153 E1.06222
G1 X85.766 Y160.687 E.01677
G1 X61.31 Y136.231 E1.08593
G1 X60.777 Y136.231 E.01674
G1 X85.766 Y161.221 E1.10962
G1 X85.766 Y161.755 E.01677
G1 X60.243 Y136.232 E1.13331
G1 X59.709 Y136.232 E.01677
G1 X85.766 Y162.289 E1.15702
G1 X85.766 Y162.823 E.01677
G1 X59.175 Y136.232 E1.18074
G1 X58.641 Y136.232 E.01677
G1 X85.766 Y163.357 E1.20445
G1 X85.766 Y163.891 E.01677
G1 X58.107 Y136.232 E1.22816
G1 X57.573 Y136.232 E.01677
G1 X85.766 Y164.425 E1.25187
G1 X85.766 Y164.959 E.01677
G1 X57.04 Y136.232 E1.27556
G1 X56.506 Y136.233 E.01677
G1 X85.766 Y165.493 E1.29925
G1 X85.766 Y166.027 E.01677
G1 X55.972 Y136.233 E1.32296
G1 X55.438 Y136.233 E.01677
G1 X85.766 Y166.561 E1.34667
G1 X85.766 Y167.095 E.01677
G1 X54.904 Y136.233 E1.37038
G1 X54.37 Y136.233 E.01677
G1 X85.766 Y167.629 E1.39409
G1 X85.766 Y168.163 E.01677
G1 X53.836 Y136.233 E1.41781
G1 X53.303 Y136.234 E.01674
G1 X85.766 Y168.697 E1.44147
G1 X85.766 Y169.231 E.01677
G1 X52.769 Y136.234 E1.46518
G1 X52.235 Y136.234 E.01677
G1 X85.766 Y169.766 E1.48892
G1 X85.233 Y169.766 E.01674
G1 X52.234 Y136.767 E1.46527
G1 X52.234 Y137.301 E.01677
G1 X84.699 Y169.766 E1.44156
G1 X84.165 Y169.766 E.01677
G1 X52.234 Y137.835 E1.41785
G1 X52.234 Y138.369 E.01677
M73 P1 R230
G1 X83.631 Y169.766 E1.39414
G1 X83.097 Y169.766 E.01677
G1 X52.234 Y138.903 E1.37043
G1 X52.234 Y139.437 E.01677
M73 P1 R229
G1 X82.563 Y169.766 E1.34672
G1 X82.029 Y169.766 E.01677
G1 X52.234 Y139.971 E1.323
G1 X52.234 Y140.505 E.01677
G1 X81.495 Y169.766 E1.29929
G1 X80.961 Y169.766 E.01677
G1 X52.234 Y141.039 E1.27558
G1 X52.234 Y141.573 E.01677
G1 X80.427 Y169.766 E1.25187
G1 X79.893 Y169.766 E.01677
G1 X52.234 Y142.107 E1.22816
G1 X52.234 Y142.641 E.01677
G1 X79.359 Y169.766 E1.20445
G1 X78.825 Y169.766 E.01677
G1 X52.234 Y143.175 E1.18074
G1 X52.234 Y143.709 E.01677
G1 X78.291 Y169.766 E1.15702
G1 X77.757 Y169.766 E.01677
G1 X52.234 Y144.243 E1.13331
G1 X52.234 Y144.777 E.01677
G1 X77.223 Y169.766 E1.1096
G1 X76.689 Y169.766 E.01677
G1 X52.234 Y145.311 E1.08589
G1 X52.234 Y145.845 E.01677
G1 X76.155 Y169.766 E1.06218
G1 X75.621 Y169.766 E.01677
G1 X52.234 Y146.379 E1.03847
G1 X52.234 Y146.913 E.01677
G1 X75.087 Y169.766 E1.01475
G1 X74.553 Y169.766 E.01677
G1 X52.234 Y147.447 E.99104
G1 X52.234 Y147.981 E.01677
G1 X74.019 Y169.766 E.96733
G1 X73.485 Y169.766 E.01677
G1 X52.234 Y148.515 E.94362
G1 X52.234 Y149.049 E.01677
G1 X72.951 Y169.766 E.91991
G1 X72.417 Y169.766 E.01677
G1 X52.234 Y149.583 E.8962
G1 X52.234 Y150.117 E.01677
G1 X71.883 Y169.766 E.87249
G1 X71.349 Y169.766 E.01677
G1 X52.234 Y150.651 E.84877
G1 X52.234 Y151.185 E.01677
G1 X70.815 Y169.766 E.82506
G1 X70.28 Y169.766 E.0168
G1 X52.234 Y151.72 E.80131
G1 X52.234 Y152.254 E.01677
G1 X69.746 Y169.766 E.7776
G1 X69.212 Y169.766 E.01677
G1 X52.234 Y152.788 E.75388
G1 X52.234 Y153.322 E.01677
G1 X68.678 Y169.766 E.73017
G1 X68.144 Y169.766 E.01677
G1 X52.234 Y153.856 E.70646
G1 X52.234 Y154.39 E.01677
G1 X67.61 Y169.766 E.68275
G1 X67.076 Y169.766 E.01677
G1 X52.234 Y154.924 E.65904
G1 X52.234 Y155.458 E.01677
G1 X66.542 Y169.766 E.63533
G1 X66.008 Y169.766 E.01677
G1 X52.234 Y155.992 E.61161
G1 X52.234 Y156.526 E.01677
G1 X65.474 Y169.766 E.5879
G1 X64.94 Y169.766 E.01677
G1 X52.234 Y157.06 E.56419
G1 X52.234 Y157.594 E.01677
G1 X64.406 Y169.766 E.54048
G1 X63.872 Y169.766 E.01677
G1 X52.234 Y158.128 E.51677
G1 X52.234 Y158.662 E.01677
G1 X63.338 Y169.766 E.49306
G1 X62.804 Y169.766 E.01677
G1 X52.234 Y159.196 E.46935
G1 X52.234 Y159.73 E.01677
G1 X62.27 Y169.766 E.44563
G1 X61.736 Y169.766 E.01677
G1 X52.234 Y160.264 E.42192
G1 X52.234 Y160.798 E.01677
G1 X61.202 Y169.766 E.39821
G1 X60.668 Y169.766 E.01677
G1 X52.234 Y161.332 E.3745
G1 X52.234 Y161.866 E.01677
G1 X60.134 Y169.766 E.35079
G1 X59.6 Y169.766 E.01677
M73 P1 R228
G1 X52.234 Y162.4 E.32708
G1 X52.234 Y162.934 E.01677
G1 X59.066 Y169.766 E.30337
G1 X58.532 Y169.766 E.01677
G1 X52.234 Y163.468 E.27965
G1 X52.234 Y164.002 E.01677
G1 X57.998 Y169.766 E.25594
G1 X57.464 Y169.766 E.01677
G1 X52.234 Y164.536 E.23223
G1 X52.234 Y165.07 E.01677
G1 X56.93 Y169.766 E.20852
G1 X56.396 Y169.766 E.01677
G1 X52.234 Y165.604 E.18481
G1 X52.234 Y166.138 E.01677
G1 X55.862 Y169.766 E.1611
G1 X55.328 Y169.766 E.01677
G1 X52.234 Y166.672 E.13738
G1 X52.234 Y167.206 E.01677
G1 X54.794 Y169.766 E.11367
G1 X54.26 Y169.766 E.01677
G1 X52.234 Y167.74 E.08996
G1 X52.234 Y168.274 E.01677
G1 X53.726 Y169.766 E.06625
G1 X53.192 Y169.766 E.01677
G1 X52.234 Y168.808 E.04254
G1 X52.234 Y169.342 E.01677
G1 X52.828 Y169.936 E.02638
M204 P1000
G1 E-2.24 F4200
;WIPE_START
G1 F7200
G1 X52.234 Y169.342 E-.46552
G1 X52.234 Y168.808 E-.29593
G1 X52.487 Y169.061 E-.19855
;WIPE_END
G1 Z.4 F720
G1 X86.078 Y128.047 F9000
G1 Z.2 F720
G1 E3.2 F2400
M204 P600
;TYPE:Perimeter
;WIDTH:0.419999
G1 F1200
G1 X85.913 Y128.113 E.00557
G1 X52.117 Y128.113 E1.05965
G1 X51.953 Y128.078 E.00526
G1 X51.887 Y127.913 E.00557
G1 X51.887 Y94.117 E1.05965
G1 X51.922 Y93.953 E.00526
G1 X52.087 Y93.887 E.00557
G1 X85.889 Y93.892 E1.05984
G1 X86.06 Y93.936 E.00554
G1 X86.113 Y94.116 E.00588
G1 X86.113 Y127.883 E1.05874
G1 X86.09 Y127.988 E.00337
M204 P1000
G1 X86.241 Y128.417 F9000
M204 P600
;TYPE:External perimeter
G1 F1200
G1 X85.961 Y128.49 E.00907
G1 X52.117 Y128.49 E1.06115
G1 X51.759 Y128.417 E.01146
G1 X51.583 Y128.241 E.0078
G1 X51.51 Y127.961 E.00907
G1 X51.51 Y94.117 E1.06115
G1 X51.583 Y93.759 E.01146
G1 X51.759 Y93.583 E.0078
G1 X52.039 Y93.51 E.00907
G1 X85.889 Y93.515 E1.06134
G1 X86.24 Y93.582 E.0112
G1 X86.417 Y93.759 E.00785
G1 X86.49 Y94.116 E.01143
G1 X86.49 Y127.883 E1.05874
G1 X86.417 Y128.241 E.01146
G1 X86.284 Y128.374 E.0059
M204 P1000
G1 X85.987 Y128.278 F9000
G1 E-2.24 F4200
;WIPE_START
G1 F7200
G1 X85.961 Y128.49 E-.19019
G1 X84.572 Y128.49 E-.76981
;WIPE_END
G1 Z.4 F720
G1 X85.172 Y94.062 F9000
G1 Z.2 F720
G1 E3.2 F2400
M204 P600
;TYPE:Solid infill
;WIDTH:0.420526
G1 F1200
G1 X85.765 Y94.656 E.02635
G1 X85.765 Y95.19 E.01677
G1 X84.807 Y94.231 E.04256
G1 X84.273 Y94.231 E.01677
G1 X85.765 Y95.724 E.06627
G1 X85.765 Y96.258 E.01677
G1 X83.739 Y94.231 E.08998
G1 X83.205 Y94.231 E.01677
G1 X85.765 Y96.792 E.1137
G1 X85.765 Y97.326 E.01677
G1 X82.671 Y94.231 E.13741
G1 X82.137 Y94.231 E.01677
G1 X85.765 Y97.86 E.16112
G1 X85.765 Y98.394 E.01677
G1 X81.603 Y94.231 E.18483
G1 X81.069 Y94.231 E.01677
G1 X85.765 Y98.928 E.20854
G1 X85.766 Y99.462 E.01677
G1 X80.534 Y94.231 E.2323
G1 X80 Y94.231 E.01677
G1 X85.766 Y99.996 E.25601
G1 X85.766 Y100.53 E.01677
G1 X79.466 Y94.231 E.27972
G1 X78.932 Y94.23 E.01677
G1 X85.766 Y101.064 E.30345
G1 X85.766 Y101.598 E.01677
G1 X78.398 Y94.23 E.32717
G1 X77.864 Y94.23 E.01677
G1 X85.766 Y102.132 E.35088
G1 X85.766 Y102.666 E.01677
G1 X77.33 Y94.23 E.37459
G1 X76.796 Y94.23 E.01677
G1 X85.766 Y103.2 E.3983
G1 X85.766 Y103.734 E.01677
G1 X76.262 Y94.23 E.42201
G1 X75.728 Y94.23 E.01677
G1 X85.766 Y104.268 E.44572
G1 X85.766 Y104.802 E.01677
G1 X75.193 Y94.23 E.46946
G1 X74.659 Y94.23 E.01677
G1 X85.766 Y105.336 E.49317
G1 X85.766 Y105.87 E.01677
G1 X74.125 Y94.23 E.51688
G1 X73.591 Y94.23 E.01677
G1 X85.766 Y106.404 E.54059
G1 X85.766 Y106.938 E.01677
G1 X73.057 Y94.23 E.5643
G1 X72.523 Y94.23 E.01677
G1 X85.766 Y107.472 E.58801
G1 X85.766 Y108.006 E.01677
G1 X71.989 Y94.229 E.61175
G1 X71.455 Y94.229 E.01677
G1 X85.766 Y108.54 E.63546
G1 X85.766 Y109.074 E.01677
G1 X70.921 Y94.229 E.65917
G1 X70.387 Y94.229 E.01677
G1 X85.766 Y109.608 E.68288
G1 X85.766 Y110.142 E.01677
G1 X69.853 Y94.229 E.70659
G1 X69.318 Y94.229 E.0168
G1 X85.766 Y110.676 E.73033
G1 X85.766 Y111.21 E.01677
G1 X68.784 Y94.229 E.75404
G1 X68.251 Y94.229 E.01674
G1 X85.766 Y111.744 E.77773
G1 X85.766 Y112.278 E.01677
G1 X67.717 Y94.229 E.80144
G1 X67.183 Y94.23 E.01677
G1 X85.766 Y112.812 E.82513
G1 X85.766 Y113.346 E.01677
G1 X66.649 Y94.23 E.84884
G1 X66.115 Y94.23 E.01677
G1 X85.766 Y113.88 E.87255
G1 X85.766 Y114.415 E.0168
G1 X65.581 Y94.23 E.89629
G1 X65.047 Y94.23 E.01677
G1 X85.766 Y114.949 E.92
G1 X85.766 Y115.483 E.01677
G1 X64.514 Y94.23 E.94369
G1 X63.98 Y94.23 E.01677
G1 X85.766 Y116.017 E.9674
G1 X85.766 Y116.551 E.01677
G1 X63.446 Y94.231 E.99109
G1 X62.912 Y94.231 E.01677
G1 X85.766 Y117.085 E1.0148
G1 X85.766 Y117.619 E.01677
G1 X62.378 Y94.231 E1.03851
G1 X61.844 Y94.231 E.01677
G1 X85.766 Y118.153 E1.06222
G1 X85.766 Y118.687 E.01677
M73 P1 R227
G1 X61.31 Y94.231 E1.08593
G1 X60.777 Y94.231 E.01674
G1 X85.766 Y119.221 E1.10962
G1 X85.766 Y119.755 E.01677
G1 X60.243 Y94.232 E1.13331
G1 X59.709 Y94.232 E.01677
G1 X85.766 Y120.289 E1.15702
G1 X85.766 Y120.823 E.01677
G1 X59.175 Y94.232 E1.18074
G1 X58.641 Y94.232 E.01677
G1 X85.766 Y121.357 E1.20445
G1 X85.766 Y121.891 E.01677
G1 X58.107 Y94.232 E1.22816
G1 X57.573 Y94.232 E.01677
M73 P2 R227
G1 X85.766 Y122.425 E1.25187
G1 X85.766 Y122.959 E.01677
G1 X57.04 Y94.232 E1.27556
G1 X56.506 Y94.233 E.01677
G1 X85.766 Y123.493 E1.29925
G1 X85.766 Y124.027 E.01677
G1 X55.972 Y94.233 E1.32296
G1 X55.438 Y94.233 E.01677
G1 X85.766 Y124.561 E1.34667
G1 X85.766 Y125.095 E.01677
G1 X54.904 Y94.233 E1.37038
G1 X54.37 Y94.233 E.01677
G1 X85.766 Y125.629 E1.39409
G1 X85.766 Y126.163 E.01677
G1 X53.836 Y94.233 E1.41781
G1 X53.303 Y94.234 E.01674
G1 X85.766 Y126.697 E1.44147
G1 X85.766 Y127.231 E.01677
G1 X52.769 Y94.234 E1.46518
G1 X52.235 Y94.234 E.01677
G1 X85.766 Y127.766 E1.48892
G1 X85.233 Y127.766 E.01674
G1 X52.234 Y94.767 E1.46527
G1 X52.234 Y95.301 E.01677
G1 X84.699 Y127.766 E1.44156
G1 X84.165 Y127.766 E.01677
G1 X52.234 Y95.835 E1.41785
G1 X52.234 Y96.369 E.01677
G1 X83.631 Y127.766 E1.39414
G1 X83.097 Y127.766 E.01677
G1 X52.234 Y96.903 E1.37043
G1 X52.234 Y97.437 E.01677
G1 X82.563 Y127.766 E1.34672
G1 X82.029 Y127.766 E.01677
G1 X52.234 Y97.971 E1.323
G1 X52.234 Y98.505 E.01677
G1 X81.495 Y127.766 E1.29929
G1 X80.961 Y127.766 E.01677
G1 X52.234 Y99.039 E1.27558
G1 X52.234 Y99.573 E.01677
G1 X80.427 Y127.766 E1.25187
