; generated by PrusaSlicer 2.6.1+MacOS-x64 on 2023-09-18 at 00:22:00 UTC


;
;

;
;
; 

; external perimeters extrusion width = 0.45mm
; perimeters extrusion width = 0.45mm
; infill extrusion width = 0.45mm
; solid infill extrusion width = 0.45mm
; top infill extrusion width = 0.40mm
; first layer extrusion width = 0.42mm

M73 P0 R110
M201 X2500 Y2500 Z400 E5000 ; sets maximum accelerations, mm/sec^2
M203 X180 Y180 Z12 E80 ; sets maximum feedrates, mm / sec
M204 P2000 R1250 T2500 ; sets acceleration (P, T) and retract acceleration (R), mm/sec^2
M205 X8.00 Y8.00 Z2.00 E10.00 ; sets the jerk limits, mm/sec
M205 S0 T0 ; sets the minimum extruding and travel feed rate, mm/sec
;TYPE:Custom
M862.3 P "MINI" ; printer model check
G90 ; use absolute coordinates
M83 ; extruder relative mode
M104 S170 ; set extruder temp for bed leveling
M140 S60 ; set bed temp
M109 R170 ; wait for bed leveling temp
M190 S60 ; wait for bed temp
M204 T1250 ; set travel acceleration
G28 ; home all without mesh bed level
G29 ; mesh bed leveling 
M204 T2500 ; restore travel acceleration
M104 S215 ; set extruder temp
G92 E0
G1 Y-2 X179 F2400
G1 Z3 F720
M109 S215 ; wait for extruder temp

; intro line
G1 X170 F1000
G1 Z0.2 F720
G1 X110 E8 F900
G1 X40 E10 F700
G92 E0

M221 S95 ; set flow
G21 ; set units to millimeters
G90 ; use absolute coordinates
M83 ; use relative distances for extrusion
M900 K0.2 ; Filament gcode LA 1.5
; ; Filament gcode LA 1.0
M107
;LAYER_CHANGE
;Z:0.2
;HEIGHT:0.2
;BEFORE_LAYER_CHANGE
G92 E0.0
;0.2


G1 E-3.2 F4200
G1 Z.2 F720
;AFTER_LAYER_CHANGE
;0.2
G1 Z.4
G1 X69.774 Y9.457 F9000
G1 Z.2 F720
G1 E3.2 F2400
M204 P600
;TYPE:Skirt/Brim
;WIDTH:0.42
G1 F1200
G1 X70.024 Y8.64 E.02679
G1 X70.335 Y8.103 E.01946
G1 X70.916 Y7.478 E.02676
G1 X71.857 Y6.935 E.03406
G1 X72.69 Y6.743 E.0268
G1 X107.31 Y6.743 E1.08549
G1 X108.36 Y7.024 E.03408
G1 X109.083 Y7.478 E.02677
G1 X109.522 Y7.917 E.01947
G1 X110.065 Y8.857 E.03404
G1 X110.277 Y10 E.03645
G1 X110.277 Y170 E5.01669
G1 X110.226 Y170.543 E.0171
G1 X109.976 Y171.36 E.02679
G1 X109.522 Y172.083 E.02677
G1 X109.083 Y172.522 E.01947
G1 X108.312 Y172.996 E.02838
G1 X107.31 Y173.257 E.03247
G1 X73 Y173.277 E1.07577
G1 X72.457 Y173.226 E.0171
G1 X71.64 Y172.976 E.02679
G1 X71.103 Y172.665 E.01946
G1 X70.478 Y172.083 E.02678
G1 X69.935 Y171.143 E.03404
G1 X69.723 Y170 E.03645
G1 X69.723 Y10 E5.01669
G1 X69.768 Y9.517 E.01521
M204 P1000
; printing object gridfinity1x4x3 id:0 copy 0
G1 E-2.24 F4200
;WIPE_START
G1 F7200
G1 X70.024 Y8.64 E-.50629
G1 X70.335 Y8.103 E-.34389
G1 X70.47 Y7.958 E-.10982
;WIPE_END
G1 Z.4 F720
G1 X101.276 Y10.356 F9000
G1 Z.2 F720
G1 E3.2 F2400
M204 P600
;TYPE:Perimeter
;WIDTH:0.456264
G1 F1200
G1 X101.218 Y10.38 E.00216
;WIDTH:0.419999
G1 X100.374 Y10.937 E.03171
G1 X99.694 Y11.686 E.03172
G1 X99.223 Y12.581 E.03171
G1 X98.989 Y13.565 E.03171
G1 X99.006 Y14.576 E.0317
G1 X99.275 Y15.551 E.03171
G1 X99.778 Y16.429 E.03173
G1 X100.483 Y17.154 E.03171
G1 X101.346 Y17.681 E.0317
G1 X102.314 Y17.976 E.03173
G1 X103.324 Y18.022 E.0317
G1 X104.314 Y17.815 E.03171
G1 X105.222 Y17.368 E.03173
G1 X105.989 Y16.71 E.03169
G1 X106.57 Y15.881 E.03174
;WIDTH:0.468288
G1 X106.681 Y15.656 E.00887
;WIDTH:0.516577
G1 X106.793 Y15.43 E.00993
;WIDTH:0.564866
G1 X106.905 Y15.204 E.01095
;WIDTH:0.613154
G1 X107.016 Y14.978 E.01194
G1 X107.033 Y15.046 E.00332
;WIDTH:0.579923
G1 X107.05 Y15.114 E.00313
;WIDTH:0.546691
G1 X107.071 Y15.405 E.01222
;WIDTH:0.504461
G1 X107.092 Y15.695 E.01116
;WIDTH:0.46223
G1 X107.113 Y15.985 E.01014
;WIDTH:0.419999
G1 X107.113 Y38.015 E.69073
;WIDTH:0.4671
G1 X107.089 Y38.275 E.00921
;WIDTH:0.5142
G1 X107.066 Y38.534 E.01019
;WIDTH:0.5613
G1 X107.042 Y38.794 E.01125
;WIDTH:0.6084
G1 X107.019 Y39.054 E.01227
G1 X106.98 Y38.981 E.00389
;WIDTH:0.568507
G1 X106.94 Y38.908 E.00364
;WIDTH:0.528614
G1 X106.794 Y38.603 E.01366
;WIDTH:0.492409
G1 X106.648 Y38.299 E.0126
;WIDTH:0.456204
G1 X106.501 Y37.994 E.01164
;WIDTH:0.419999
G1 X105.892 Y37.187 E.0317
G1 X105.102 Y36.556 E.0317
G1 X104.179 Y36.141 E.03173
G1 X103.183 Y35.969 E.03169
G1 X102.174 Y36.05 E.03174
G1 X101.218 Y36.38 E.03171
G1 X100.374 Y36.937 E.03171
G1 X99.694 Y37.686 E.03172
G1 X99.223 Y38.581 E.03171
G1 X98.989 Y39.565 E.03171
G1 X99.006 Y40.576 E.0317
G1 X99.275 Y41.551 E.03171
G1 X99.778 Y42.429 E.03173
G1 X100.483 Y43.154 E.03171
G1 X101.346 Y43.681 E.0317
;WIDTH:0.465617
G1 X101.667 Y43.802 E.01206
;WIDTH:0.511235
G1 X101.988 Y43.923 E.01336
;WIDTH:0.556852
G1 X102.309 Y44.044 E.01466
G1 X102.229 Y44.058 E.00347
;WIDTH:0.529215
G1 X102.149 Y44.072 E.00328
;WIDTH:0.501578
G1 X101.713 Y44.093 E.01665
;WIDTH:0.460789
G1 X101.278 Y44.113 E.01513
;WIDTH:0.419999
G1 X78.203 Y44.113 E.7235
;WIDTH:0.464033
G1 X77.768 Y44.09 E.01525
;WIDTH:0.508066
G1 X77.333 Y44.067 E.01685
G1 X77.823 Y43.941 E.01957
;WIDTH:0.464033
G1 X78.314 Y43.815 E.01775
;WIDTH:0.419999
G1 X79.222 Y43.368 E.03173
G1 X79.989 Y42.71 E.03169
G1 X80.57 Y41.881 E.03174
G1 X80.925 Y40.935 E.03168
G1 X81.034 Y39.929 E.03173
G1 X80.89 Y38.928 E.03171
G1 X80.501 Y37.994 E.03172
G1 X79.892 Y37.187 E.0317
G1 X79.222 Y36.632 E.02728
G1 X78.887 Y36.455 E.01188
G1 X78.179 Y36.141 E.02428
G1 X77.183 Y35.969 E.03169
G1 X76.174 Y36.05 E.03174
G1 X75.218 Y36.38 E.03171
G1 X74.374 Y36.937 E.03171
G1 X73.694 Y37.686 E.03172
G1 X73.223 Y38.581 E.03171
;WIDTH:0.46038
G1 X73.131 Y38.857 E.0101
;WIDTH:0.50076
G1 X73.039 Y39.133 E.01108
;WIDTH:0.54114
G1 X72.948 Y39.409 E.01204
G1 X72.927 Y39.119 E.01205
;WIDTH:0.50076
G1 X72.907 Y38.829 E.01107
;WIDTH:0.46038
G1 X72.887 Y38.538 E.01012
;WIDTH:0.419999
G1 X72.887 Y15.462 E.72353
;WIDTH:0.456936
G1 X72.906 Y15.155 E.01059
;WIDTH:0.493873
M73 P0 R109
G1 X72.924 Y14.849 E.01149
;WIDTH:0.53081
G1 X72.942 Y14.543 E.01244
G1 X72.959 Y14.588 E.00195
;WIDTH:0.517318
G1 X73.117 Y15.07 E.02001
;WIDTH:0.468659
G1 X73.275 Y15.551 E.01792
;WIDTH:0.419999
G1 X73.778 Y16.429 E.03173
G1 X74.483 Y17.154 E.03171
G1 X75.346 Y17.681 E.0317
G1 X76.314 Y17.976 E.03173
G1 X77.324 Y18.022 E.0317
G1 X78.314 Y17.815 E.03171
G1 X79.222 Y17.368 E.03173
G1 X79.989 Y16.71 E.03169
G1 X80.57 Y15.881 E.03174
G1 X80.925 Y14.935 E.03168
G1 X81.034 Y13.929 E.03173
G1 X80.89 Y12.928 E.03171
G1 X80.501 Y11.994 E.03172
G1 X79.892 Y11.187 E.0317
G1 X79.102 Y10.556 E.0317
G1 X78.179 Y10.141 E.03173
;WIDTH:0.465557
G1 X77.756 Y10.037 E.01531
;WIDTH:0.511114
G1 X77.333 Y9.933 E.01696
G1 X77.768 Y9.911 E.01696
;WIDTH:0.465557
G1 X78.203 Y9.888 E.01531
;WIDTH:0.419999
G1 X101.279 Y9.891 E.72353
;WIDTH:0.46692
G1 X101.599 Y9.915 E.01131
;WIDTH:0.51384
G1 X101.919 Y9.938 E.01256
;WIDTH:0.56076
G1 X102.239 Y9.962 E.01382
G1 X102.158 Y9.999 E.00383
;WIDTH:0.528793
G1 X101.844 Y10.126 E.01368
;WIDTH:0.492529
G1 X101.531 Y10.253 E.01263
;WIDTH:0.456264
G1 X101.331 Y10.334 E.00742
M204 P1000
G1 E-2.24 F4200
;WIPE_START
G1 F7200
G1 X101.218 Y10.38 E-.06761
G1 X100.374 Y10.937 E-.56039
G1 X99.971 Y11.381 E-.332
;WIPE_END
G1 Z.4 F720
G1 X103.332 Y9.935 F9000
G1 Z.2 F720
G1 E3.2 F2400
M204 P600
;WIDTH:0.50718
G1 F1200
G1 X103.768 Y9.913 E.01685
;WIDTH:0.46359
G1 X104.203 Y9.892 E.01523
;WIDTH:0.419999
G1 X106.889 Y9.892 E.08422
G1 X107.06 Y9.936 E.00554
G1 X107.113 Y10.116 E.00588
G1 X107.113 Y12.015 E.05954
;WIDTH:0.4671
G1 X107.089 Y12.275 E.00921
;WIDTH:0.5142
G1 X107.066 Y12.534 E.01019
;WIDTH:0.5613
G1 X107.042 Y12.794 E.01125
;WIDTH:0.6084
G1 X107.019 Y13.054 E.01227
G1 X106.98 Y12.981 E.00389
;WIDTH:0.568507
G1 X106.94 Y12.908 E.00364
;WIDTH:0.528614
G1 X106.794 Y12.603 E.01366
;WIDTH:0.492409
G1 X106.648 Y12.299 E.0126
;WIDTH:0.456204
G1 X106.501 Y11.994 E.01164
;WIDTH:0.419999
G1 X105.892 Y11.187 E.0317
G1 X105.102 Y10.556 E.0317
G1 X104.179 Y10.141 E.03173
;WIDTH:0.46359
G1 X103.756 Y10.038 E.01523
;WIDTH:0.50718
G1 X103.391 Y9.949 E.0145
M204 P1000
G1 E-2.24 F4200
;WIPE_START
G1 F7200
G1 X103.768 Y9.913 E-.20987
G1 X104.203 Y9.892 E-.24134
G1 X105.121 Y9.892 E-.50879
;WIPE_END
G1 Z.4 F720
G1 X101.406 Y10.707 F9000
G1 Z.2 F720
G1 E3.2 F2400
M204 P600
;TYPE:External perimeter
;WIDTH:0.419999
G1 F1200
G1 X102.291 Y10.409 E.02928
G1 X103.206 Y10.345 E.02876
G1 X104.109 Y10.512 E.02879
G1 X104.941 Y10.897 E.02874
G1 X105.652 Y11.477 E.02877
G1 X106.196 Y12.216 E.02877
G1 X106.539 Y13.067 E.02877
G1 X106.66 Y13.976 E.02875
G1 X106.551 Y14.887 E.02877
G1 X106.219 Y15.743 E.02879
G1 X105.684 Y16.488 E.02876
G1 X104.981 Y17.078 E.02878
G1 X104.154 Y17.474 E.02875
G1 X103.253 Y17.652 E.0288
G1 X102.337 Y17.6 E.02877
G1 X101.463 Y17.322 E.02876
G1 X100.685 Y16.835 E.02878
G1 X100.053 Y16.171 E.02874
G1 X99.605 Y15.369 E.0288
G1 X99.372 Y14.482 E.02875
G1 X99.366 Y13.565 E.02875
G1 X99.588 Y12.675 E.02876
G1 X100.025 Y11.868 E.02877
G1 X100.649 Y11.195 E.02878
G1 X101.355 Y10.74 E.02633
M204 P1000
G1 X101.435 Y10.309 F9000
G1 X102.239 Y9.962
M204 P600
;TYPE:Perimeter
;WIDTH:0.56076
G1 F1200
G1 X102.71 Y9.946 E.02029
;WIDTH:0.529182
G1 X103.18 Y9.93 E.01901
;WIDTH:0.50718
G1 X103.332 Y9.935 E.00587
M204 P1000
G1 E-2.24 F4200
;WIPE_START
G1 F7200
G1 X103.18 Y9.93 E-.08428
G1 X102.71 Y9.946 E-.26061
G1 X102.239 Y9.962 E-.26116
;WIPE_END
G1 E-.35395 F4200
G1 Z.4 F720
G1 X107.019 Y13.054 F9000
G1 Z.2 F720
G1 E3.2 F2400
M204 P600
;WIDTH:0.6084
G1 F1200
G1 X107.037 Y13.344 E.01366
;WIDTH:0.571884
G1 X107.055 Y13.634 E.01278
;WIDTH:0.535368
G1 X107.073 Y13.924 E.0119
G1 X107.055 Y14.265 E.01398
;WIDTH:0.571884
G1 X107.037 Y14.606 E.01502
;WIDTH:0.6084
G1 X107.019 Y14.946 E.01601
;WIDTH:0.613154
G1 X107.016 Y14.978 E.00152
M204 P1000
G1 E-2.24 F4200
;WIPE_START
G1 F7200
G1 X107.019 Y14.946 E-.01781
G1 X107.037 Y14.606 E-.18868
G1 X107.055 Y14.265 E-.18923
G1 X107.073 Y13.924 E-.18923
G1 X107.055 Y13.634 E-.16102
G1 X107.037 Y13.344 E-.16102
G1 X107.031 Y13.249 E-.05301
;WIPE_END
G1 Z.4 F720
G1 X103.324 Y44.068 F9000
G1 Z.2 F720
G1 E3.2 F2400
M204 P600
;WIDTH:0.510118
G1 F1200
G1 X103.333 Y44.067 E.00035
;WIDTH:0.508066
G1 X103.823 Y43.941 E.01957
;WIDTH:0.464033
G1 X104.314 Y43.815 E.01775
;WIDTH:0.419999
G1 X105.222 Y43.368 E.03173
G1 X105.989 Y42.71 E.03169
G1 X106.57 Y41.881 E.03174
;WIDTH:0.468288
G1 X106.681 Y41.656 E.00887
;WIDTH:0.516577
G1 X106.793 Y41.43 E.00993
;WIDTH:0.564866
G1 X106.905 Y41.204 E.01095
;WIDTH:0.613154
G1 X107.016 Y40.978 E.01194
G1 X107.033 Y41.046 E.00332
;WIDTH:0.579922
G1 X107.05 Y41.115 E.00317
;WIDTH:0.54669
G1 X107.071 Y41.405 E.01218
;WIDTH:0.50446
G1 X107.092 Y41.695 E.01116
;WIDTH:0.46223
G1 X107.113 Y41.985 E.01014
;WIDTH:0.419999
G1 X107.113 Y43.883 E.05951
G1 X107.078 Y44.047 E.00526
G1 X106.913 Y44.113 E.00557
G1 X104.203 Y44.113 E.08497
;WIDTH:0.465059
G1 X103.763 Y44.09 E.01547
;WIDTH:0.510118
G1 X103.384 Y44.071 E.01474
M204 P1000
G1 X102.354 Y43.601 F9000
M204 P600
;TYPE:External perimeter
;WIDTH:0.419999
G1 F1200
G1 X101.463 Y43.322 E.02927
G1 X100.685 Y42.835 E.02878
G1 X100.053 Y42.171 E.02874
G1 X99.605 Y41.369 E.0288
G1 X99.372 Y40.482 E.02875
G1 X99.366 Y39.565 E.02875
G1 X99.588 Y38.675 E.02876
G1 X100.025 Y37.868 E.02877
G1 X100.649 Y37.195 E.02878
G1 X101.429 Y36.693 E.02908
G1 X102.291 Y36.409 E.02846
G1 X103.206 Y36.345 E.02876
G1 X104.109 Y36.512 E.02879
G1 X104.941 Y36.897 E.02874
G1 X105.652 Y37.477 E.02877
G1 X106.196 Y38.216 E.02877
G1 X106.539 Y39.067 E.02877
G1 X106.66 Y39.976 E.02875
G1 X106.551 Y40.887 E.02877
G1 X106.219 Y41.743 E.02879
G1 X105.684 Y42.488 E.02876
G1 X104.981 Y43.078 E.02878
G1 X104.154 Y43.474 E.02875
G1 X103.253 Y43.652 E.0288
G1 X102.414 Y43.604 E.02635
M204 P1000
G1 X102.096 Y43.906 F9000
G1 E-2.24 F4200
;WIPE_START
G1 F7200
G1 X101.463 Y43.322 E-.54969
G1 X100.835 Y42.929 E-.41031
;WIPE_END
G1 Z.4 F720
G1 X107.019 Y39.054 F9000
G1 Z.2 F720
G1 E3.2 F2400
M204 P600
;TYPE:Perimeter
;WIDTH:0.6084
G1 F1200
G1 X107.037 Y39.344 E.01366
;WIDTH:0.571884
G1 X107.055 Y39.634 E.01278
;WIDTH:0.535368
G1 X107.073 Y39.924 E.0119
G1 X107.055 Y40.265 E.01398
;WIDTH:0.571884
G1 X107.037 Y40.606 E.01502
;WIDTH:0.6084
G1 X107.019 Y40.946 E.01601
;WIDTH:0.613154
G1 X107.016 Y40.978 E.00152
M204 P1000
G1 E-2.24 F4200
;WIPE_START
G1 F7200
G1 X107.019 Y40.946 E-.01781
G1 X107.037 Y40.606 E-.18868
G1 X107.055 Y40.265 E-.18923
G1 X107.073 Y39.924 E-.18923
G1 X107.055 Y39.634 E-.16102
G1 X107.037 Y39.344 E-.16102
G1 X107.031 Y39.249 E-.05301
;WIPE_END
G1 Z.4 F720
G1 X103.324 Y44.068 F9000
G1 Z.2 F720
G1 E3.2 F2400
M204 P600
;WIDTH:0.556852
G1 F1200
G1 X102.309 Y44.044 E.04339
M204 P1000
G1 E-2.24 F4200
;WIPE_START
G1 F7200
G1 X103.324 Y44.068 E-.56264
;WIPE_END
G1 E-.39736 F4200
G1 Z.4 F720
G1 X76.309 Y44.044 F9000
G1 Z.2 F720
G1 E3.2 F2400
M204 P600
;WIDTH:0.556854
G1 F1200
G1 X76.229 Y44.058 E.00347
;WIDTH:0.529217
G1 X76.149 Y44.072 E.00328
;WIDTH:0.50158
G1 X75.713 Y44.093 E.01665
;WIDTH:0.46079
G1 X75.278 Y44.113 E.01513
;WIDTH:0.419999
G1 X73.117 Y44.113 E.06776
G1 X72.953 Y44.078 E.00526
G1 X72.887 Y43.913 E.00557
G1 X72.887 Y41.462 E.07685
;WIDTH:0.456936
G1 X72.906 Y41.155 E.01059
;WIDTH:0.493873
G1 X72.924 Y40.849 E.01149
;WIDTH:0.53081
G1 X72.942 Y40.543 E.01244
G1 X72.959 Y40.588 E.00195
;WIDTH:0.517319
G1 X73.117 Y41.07 E.02001
;WIDTH:0.468659
G1 X73.275 Y41.551 E.01792
;WIDTH:0.419999
G1 X73.778 Y42.429 E.03173
G1 X74.483 Y43.154 E.03171
G1 X75.346 Y43.681 E.0317
;WIDTH:0.465618
G1 X75.667 Y43.802 E.01206
;WIDTH:0.511236
G1 X75.988 Y43.923 E.01336
;WIDTH:0.556854
G1 X76.253 Y44.023 E.0121
M204 P1000
G1 E-2.24 F4200
;WIPE_START
G1 F7200
G1 X76.229 Y44.058 E-.02352
G1 X76.149 Y44.072 E-.04501
G1 X75.713 Y44.093 E-.2419
G1 X75.278 Y44.113 E-.24132
G1 X74.541 Y44.113 E-.40825
;WIPE_END
G1 Z.4 F720
G1 X78.169 Y43.466 F9000
G1 Z.2 F720
G1 E3.2 F2400
M204 P600
;TYPE:External perimeter
;WIDTH:0.419999
G1 F1200
G1 X77.253 Y43.652 E.02931
G1 X76.337 Y43.6 E.02877
G1 X75.463 Y43.322 E.02876
G1 X74.685 Y42.835 E.02878
G1 X74.053 Y42.171 E.02874
G1 X73.605 Y41.369 E.0288
G1 X73.372 Y40.482 E.02875
G1 X73.366 Y39.565 E.02875
G1 X73.588 Y38.675 E.02876
G1 X74.025 Y37.868 E.02877
G1 X74.649 Y37.195 E.02878
G1 X75.42 Y36.698 E.02876
G1 X76.291 Y36.409 E.02877
G1 X77.206 Y36.345 E.02876
G1 X78.109 Y36.512 E.02879
G1 X78.981 Y36.922 E.03021
G1 X79.652 Y37.477 E.0273
G1 X80.196 Y38.216 E.02877
G1 X80.539 Y39.067 E.02877
G1 X80.66 Y39.976 E.02875
G1 X80.551 Y40.887 E.02877
G1 X80.219 Y41.743 E.02879
G1 X79.684 Y42.488 E.02876
G1 X78.981 Y43.078 E.02878
G1 X78.223 Y43.441 E.02635
M204 P1000
G1 X78.09 Y43.858 F9000
G1 E-2.24 F4200
;WIPE_START
G1 F7200
G1 X77.253 Y43.652 E-.55011
G1 X76.515 Y43.61 E-.40989
;WIPE_END
G1 Z.4 F720
G1 X72.942 Y40.543 F9000
G1 Z.2 F720
G1 E3.2 F2400
M204 P600
;TYPE:Perimeter
;WIDTH:0.53081
G1 F1200
G1 X72.938 Y39.565 E.03968
;WIDTH:0.54114
G1 X72.948 Y39.409 E.00648
M204 P1000
G1 E-2.24 F4200
;WIPE_START
G1 F7200
G1 X72.938 Y39.565 E-.08663
G1 X72.942 Y40.543 E-.54198
;WIPE_END
G1 E-.33139 F4200
G1 Z.4 F720
G1 X77.324 Y44.068 F9000
G1 Z.2 F720
G1 E3.2 F2400
M204 P600
;WIDTH:0.556854
G1 F1200
G1 X76.309 Y44.044 E.04339
M204 P1000
G1 E-2.24 F4200
;WIPE_START
G1 F7200
G1 X77.324 Y44.068 E-.56264
;WIPE_END
G1 E-.39736 F4200
G1 Z.4 F720
G1 X72.948 Y13.409 F9000
G1 Z.2 F720
G1 E3.2 F2400
M204 P600
;WIDTH:0.541142
G1 F1200
G1 X72.927 Y13.119 E.01205
;WIDTH:0.500761
G1 X72.907 Y12.829 E.01107
;WIDTH:0.46038
G1 X72.887 Y12.538 E.01013
;WIDTH:0.419999
G1 X72.887 Y10.117 E.07591
G1 X72.922 Y9.953 E.00526
G1 X73.087 Y9.887 E.00557
G1 X75.278 Y9.887 E.0687
;WIDTH:0.468231
G1 X75.598 Y9.912 E.01135
;WIDTH:0.516463
G1 X75.919 Y9.936 E.01267
;WIDTH:0.564694
G1 X76.239 Y9.96 E.01392
G1 X76.157 Y9.997 E.0039
;WIDTH:0.531732
G1 X75.844 Y10.125 E.01374
;WIDTH:0.494488
G1 X75.531 Y10.252 E.01268
;WIDTH:0.457244
G1 X75.218 Y10.38 E.01165
;WIDTH:0.419999
G1 X74.483 Y10.846 E.02729
G1 X74.178 Y11.145 E.01339
G1 X73.694 Y11.686 E.02276
G1 X73.223 Y12.581 E.03171
;WIDTH:0.46038
G1 X73.131 Y12.857 E.0101
;WIDTH:0.500761
G1 X73.039 Y13.133 E.01108
;WIDTH:0.541142
G1 X72.967 Y13.352 E.00955
M204 P1000
G1 E-2.24 F4200
;WIPE_START
G1 F7200
G1 X72.927 Y13.119 E-.13101
G1 X72.907 Y12.829 E-.16109
G1 X72.887 Y12.538 E-.16164
G1 X72.887 Y11.624 E-.50626
;WIPE_END
G1 Z.4 F720
G1 X73.614 Y15.384 F9000
