; generated by PrusaSlicer 2.6.1+MacOS-x64 on 2023-09-19 at 03:37:50 UTC


;
;

;
;
; 

; external perimeters extrusion width = 0.45mm
; perimeters extrusion width = 0.45mm
; infill extrusion width = 0.45mm
; solid infill extrusion width = 0.45mm
; top infill extrusion width = 0.40mm
; first layer extrusion width = 0.42mm

M73 P0 R72
M201 X2500 Y2500 Z400 E5000 ; sets maximum accelerations, mm/sec^2
M203 X180 Y180 Z12 E80 ; sets maximum feedrates, mm / sec
M204 P2000 R1250 T2500 ; sets acceleration (P, T) and retract acceleration (R), mm/sec^2
M205 X8.00 Y8.00 Z2.00 E10.00 ; sets the jerk limits, mm/sec
M205 S0 T0 ; sets the minimum extruding and travel feed rate, mm/sec
;TYPE:Custom
M862.3 P "MINI" ; printer model check
G90 ; use absolute coordinates
M83 ; extruder relative mode
M104 S170 ; set extruder temp for bed leveling
M140 S60 ; set bed temp
M109 R170 ; wait for bed leveling temp
M190 S60 ; wait for bed temp
M204 T1250 ; set travel acceleration
G28 ; home all without mesh bed level
G29 ; mesh bed leveling 
M204 T2500 ; restore travel acceleration
M104 S215 ; set extruder temp
G92 E0
G1 Y-2 X179 F2400
G1 Z3 F720
M109 S215 ; wait for extruder temp

; intro line
G1 X170 F1000
G1 Z0.2 F720
G1 X110 E8 F900
G1 X40 E10 F700
G92 E0

M221 S95 ; set flow
G21 ; set units to millimeters
G90 ; use absolute coordinates
M83 ; use relative distances for extrusion
M900 K0.2 ; Filament gcode LA 1.5
; ; Filament gcode LA 1.0
M107
;LAYER_CHANGE
;Z:0.2
;HEIGHT:0.2
;BEFORE_LAYER_CHANGE
G92 E0.0
;0.2


G1 E-3.2 F4200
G1 Z.2 F720
;AFTER_LAYER_CHANGE
;0.2
G1 Z.4
G1 X70.668 Y70.699 F9000
G1 Z.2 F720
G1 E3.2 F2400
M204 P600
;TYPE:Skirt/Brim
;WIDTH:0.42
G1 F1200
G1 X71.261 Y70.225 E.0238
G1 X71.654 Y70.017 E.01394
G1 X72.464 Y69.772 E.02653
G1 X73 Y69.723 E.01688
G1 X107.266 Y69.738 E1.07439
G1 X108.346 Y70.017 E.03497
G1 X108.739 Y70.225 E.01394
G1 X109.332 Y70.699 E.0238
G1 X109.775 Y71.261 E.02244
G1 X110.052 Y71.822 E.01962
G1 X110.228 Y72.464 E.02087
G1 X110.277 Y73 E.01688
G1 X110.277 Y107 E1.06605
G1 X110.228 Y107.536 E.01688
G1 X110.052 Y108.178 E.02087
G1 X109.775 Y108.739 E.01962
G1 X109.332 Y109.301 E.02244
G1 X108.739 Y109.775 E.0238
G1 X108.346 Y109.983 E.01394
G1 X107.536 Y110.228 E.02653
G1 X107 Y110.277 E.01688
G1 X73 Y110.277 E1.06605
G1 X72.464 Y110.228 E.01688
G1 X71.822 Y110.052 E.02087
G1 X71.261 Y109.775 E.01962
G1 X70.699 Y109.332 E.02244
G1 X70.225 Y108.739 E.0238
G1 X70.017 Y108.346 E.01394
G1 X69.772 Y107.536 E.02653
G1 X69.723 Y107 E.01688
G1 X69.723 Y73 E1.06605
G1 X69.772 Y72.464 E.01688
G1 X69.948 Y71.822 E.02087
G1 X70.225 Y71.261 E.01962
G1 X70.631 Y70.747 E.02054
M204 P1000
; printing object THE BOX OF MYSTERY id:0 copy 0
G1 E-2.24 F4200
;WIPE_START
G1 F7200
G1 X71.261 Y70.225 E-.4534
G1 X71.654 Y70.017 E-.24641
G1 X72.103 Y69.881 E-.26019
;WIPE_END
G1 Z.4 F720
G1 X107.046 Y77.696 F9000
G1 Z.2 F720
G1 E3.2 F2400
M204 P600
;TYPE:Perimeter
;WIDTH:0.554504
G1 F1200
G1 X107.054 Y77.748 E.00224
;WIDTH:0.53708
G1 X107.074 Y77.944 E.0081
;WIDTH:0.498053
G1 X107.093 Y78.14 E.00745
;WIDTH:0.459026
G1 X107.113 Y78.337 E.00685
;WIDTH:0.419999
G1 X107.113 Y101.663 E.73137
;WIDTH:0.468528
G1 X107.089 Y101.86 E.00702
;WIDTH:0.517057
G1 X107.064 Y102.056 E.00779
;WIDTH:0.565586
G1 X107.04 Y102.252 E.00858
G1 X106.957 Y102.038 E.00998
;WIDTH:0.517057
G1 X106.873 Y101.824 E.00906
;WIDTH:0.468528
G1 X106.789 Y101.61 E.00814
;WIDTH:0.419999
G1 X106.5 Y100.99 E.02145
G1 X106.11 Y100.427 E.02147
G1 X105.63 Y99.939 E.02146
G1 X105.075 Y99.538 E.02147
G1 X104.46 Y99.237 E.02147
G1 X103.797 Y99.044 E.02165
G1 X103.083 Y98.967 E.02252
G1 X102.44 Y99.003 E.02019
G1 X101.772 Y99.155 E.02148
G1 X101.14 Y99.418 E.02146
G1 X100.562 Y99.784 E.02145
G1 X100.053 Y100.242 E.02147
G1 X99.629 Y100.78 E.02148
G1 X99.303 Y101.381 E.02144
G1 X99.082 Y102.029 E.02147
G1 X98.975 Y102.706 E.02149
G1 X98.983 Y103.39 E.02145
G1 X99.106 Y104.063 E.02145
G1 X99.342 Y104.706 E.02148
G1 X99.683 Y105.3 E.02148
G1 X100.119 Y105.827 E.02145
G1 X100.639 Y106.273 E.02148
G1 X101.226 Y106.625 E.02146
G1 X101.864 Y106.873 E.02146
;WIDTH:0.459058
G1 X102.052 Y106.933 E.00683
;WIDTH:0.498116
G1 X102.24 Y106.994 E.00748
;WIDTH:0.537174
G1 X102.427 Y107.054 E.00807
G1 X102.231 Y107.074 E.0081
;WIDTH:0.498116
G1 X102.035 Y107.093 E.00745
;WIDTH:0.459058
G1 X101.839 Y107.113 E.00682
;WIDTH:0.419999
G1 X78.513 Y107.113 E.73137
;WIDTH:0.460676
G1 X78.345 Y107.093 E.00588
;WIDTH:0.501352
G1 X78.178 Y107.072 E.00642
;WIDTH:0.542028
G1 X78.011 Y107.052 E.00698
;WIDTH:0.582704
G1 X77.843 Y107.032 E.00759
G1 X77.916 Y106.997 E.00363
;WIDTH:0.549751
G1 X78.127 Y106.907 E.00967
;WIDTH:0.506501
G1 X78.338 Y106.817 E.00884
;WIDTH:0.46325
G1 X78.549 Y106.727 E.00802
;WIDTH:0.419999
G1 X79.157 Y106.411 E.02148
G1 X79.702 Y105.998 E.02144
G1 X80.17 Y105.498 E.02147
G1 X80.547 Y104.926 E.02148
G1 X80.821 Y104.299 E.02145
G1 X80.986 Y103.635 E.02145
G1 X81.036 Y102.952 E.02147
G1 X80.97 Y102.271 E.02145
G1 X80.789 Y101.61 E.02149
G1 X80.5 Y100.99 E.02145
G1 X80.11 Y100.427 E.02147
G1 X79.63 Y99.939 E.02146
G1 X79.075 Y99.538 E.02147
G1 X78.46 Y99.237 E.02147
G1 X77.797 Y99.044 E.02165
G1 X77.083 Y98.967 E.02252
G1 X76.44 Y99.003 E.02019
G1 X75.772 Y99.155 E.02148
G1 X75.14 Y99.418 E.02146
G1 X74.562 Y99.784 E.02145
G1 X74.053 Y100.242 E.02147
G1 X73.629 Y100.78 E.02148
G1 X73.303 Y101.381 E.02144
;WIDTH:0.469158
G1 X73.223 Y101.539 E.00628
;WIDTH:0.518316
G1 X73.144 Y101.697 E.00698
;WIDTH:0.567474
G1 X73.065 Y101.855 E.0077
;WIDTH:0.616632
G1 X72.985 Y102.013 E.00845
G1 X72.971 Y101.956 E.0028
;WIDTH:0.588423
G1 X72.957 Y101.899 E.00266
;WIDTH:0.560214
G1 X72.934 Y101.703 E.00849
;WIDTH:0.513476
G1 X72.91 Y101.506 E.00776
;WIDTH:0.466738
G1 X72.887 Y101.31 E.00695
;WIDTH:0.419999
G1 X72.887 Y78.69 E.70923
;WIDTH:0.469267
G1 X72.912 Y78.515 E.00627
;WIDTH:0.518535
G1 X72.936 Y78.34 E.00699
;WIDTH:0.567803
G1 X72.961 Y78.165 E.00772
;WIDTH:0.61707
G1 X72.986 Y77.99 E.00844
G1 X73.013 Y78.038 E.00263
;WIDTH:0.589426
G1 X73.04 Y78.087 E.00254
;WIDTH:0.561782
G1 X73.14 Y78.293 E.00988
;WIDTH:0.514521
G1 X73.241 Y78.5 E.00903
;WIDTH:0.46726
G1 X73.342 Y78.706 E.0081
;WIDTH:0.419999
G1 X73.683 Y79.3 E.02148
G1 X74.119 Y79.827 E.02145
G1 X74.639 Y80.273 E.02148
G1 X75.226 Y80.625 E.02146
G1 X75.864 Y80.873 E.02146
G1 X76.535 Y81.009 E.02147
G1 X77.219 Y81.03 E.02146
G1 X77.897 Y80.935 E.02147
G1 X78.618 Y80.692 E.02386
G1 X79.157 Y80.411 E.01906
G1 X79.702 Y79.998 E.02144
G1 X80.17 Y79.498 E.02147
G1 X80.547 Y78.926 E.02148
G1 X80.821 Y78.299 E.02145
G1 X80.986 Y77.635 E.02145
G1 X81.036 Y76.952 E.02147
G1 X80.97 Y76.271 E.02145
G1 X80.787 Y75.605 E.02166
G1 X80.477 Y74.957 E.02252
G1 X80.11 Y74.427 E.02021
G1 X79.63 Y73.939 E.02146
G1 X79.075 Y73.538 E.02147
G1 X78.46 Y73.237 E.02147
;WIDTH:0.459202
G1 X78.297 Y73.169 E.00611
;WIDTH:0.498404
G1 X78.133 Y73.102 E.00671
;WIDTH:0.537606
G1 X77.97 Y73.034 E.00726
;WIDTH:0.576808
G1 X77.806 Y72.966 E.00788
G1 X77.924 Y72.943 E.00534
;WIDTH:0.530588
G1 X78.12 Y72.924 E.00799
;WIDTH:0.493725
G1 X78.316 Y72.906 E.00738
;WIDTH:0.456862
G1 X78.513 Y72.888 E.00681
;WIDTH:0.419999
G1 X101.839 Y72.89 E.73137
;WIDTH:0.456471
G1 X102.043 Y72.908 E.00704
;WIDTH:0.492943
G1 X102.248 Y72.927 E.0077
;WIDTH:0.529414
G1 X102.452 Y72.945 E.00828
G1 X102.429 Y72.953 E.00099
;WIDTH:0.522801
G1 X102.21 Y73.02 E.00914
;WIDTH:0.488534
G1 X101.991 Y73.088 E.0085
;WIDTH:0.454267
G1 X101.772 Y73.155 E.00783
;WIDTH:0.419999
G1 X101.14 Y73.418 E.02146
G1 X100.562 Y73.784 E.02145
G1 X100.053 Y74.242 E.02147
G1 X99.626 Y74.785 E.02166
G1 X99.289 Y75.419 E.02251
G1 X99.082 Y76.029 E.0202
G1 X98.975 Y76.706 E.02149
G1 X98.983 Y77.39 E.02145
G1 X99.106 Y78.063 E.02145
G1 X99.342 Y78.706 E.02148
G1 X99.683 Y79.3 E.02148
G1 X100.119 Y79.827 E.02145
G1 X100.639 Y80.273 E.02148
G1 X101.226 Y80.625 E.02146
G1 X101.864 Y80.873 E.02146
G1 X102.535 Y81.009 E.02147
G1 X103.219 Y81.03 E.02146
G1 X103.897 Y80.935 E.02147
G1 X104.549 Y80.727 E.02146
G1 X105.157 Y80.411 E.02148
G1 X105.702 Y79.998 E.02144
G1 X106.17 Y79.498 E.02147
G1 X106.547 Y78.926 E.02148
G1 X106.821 Y78.299 E.02145
;WIDTH:0.464834
G1 X106.896 Y78.098 E.00753
;WIDTH:0.509669
G1 X106.971 Y77.897 E.00833
;WIDTH:0.554504
G1 X107.025 Y77.752 E.00658
M204 P1000
G1 E-2.24 F4200
;WIPE_START
G1 F7200
G1 X107.054 Y77.748 E-.01622
G1 X107.074 Y77.944 E-.10918
G1 X107.093 Y78.14 E-.10913
G1 X107.113 Y78.337 E-.10973
G1 X107.113 Y79.448 E-.61574
;WIPE_END
G1 Z.4 F720
G1 X106.797 Y75.63 F9000
G1 Z.2 F720
G1 E3.2 F2400
M204 P600
;WIDTH:0.468528
G1 F1200
G1 X106.789 Y75.61 E.00076
;WIDTH:0.419999
G1 X106.5 Y74.99 E.02145
G1 X106.11 Y74.427 E.02147
G1 X105.63 Y73.939 E.02146
G1 X105.075 Y73.538 E.02147
G1 X104.46 Y73.237 E.02147
;WIDTH:0.458521
G1 X104.297 Y73.17 E.00609
;WIDTH:0.497043
G1 X104.133 Y73.102 E.0067
;WIDTH:0.535565
G1 X103.97 Y73.035 E.00722
;WIDTH:0.574086
G1 X103.806 Y72.967 E.00784
G1 X103.923 Y72.945 E.00526
;WIDTH:0.528765
G1 X104.12 Y72.927 E.00799
;WIDTH:0.49251
G1 X104.316 Y72.908 E.00736
;WIDTH:0.456255
G1 X104.512 Y72.89 E.00676
;WIDTH:0.419999
G1 X106.891 Y72.891 E.07459
G1 X107.06 Y72.937 E.00549
G1 X107.113 Y73.113 E.00576
G1 X107.113 Y75.663 E.07995
;WIDTH:0.468528
G1 X107.089 Y75.86 E.00702
;WIDTH:0.517057
G1 X107.064 Y76.056 E.00779
;WIDTH:0.565586
G1 X107.04 Y76.252 E.00858
G1 X106.957 Y76.038 E.00998
;WIDTH:0.517057
G1 X106.873 Y75.824 E.00906
;WIDTH:0.468528
G1 X106.819 Y75.686 E.00524
M204 P1000
G1 X106.441 Y75.755 F9000
M204 P600
;TYPE:External perimeter
;WIDTH:0.419999
G1 F1200
G1 X106.605 Y76.366 E.01984
G1 X106.66 Y76.984 E.01945
G1 X106.61 Y77.603 E.01947
G1 X106.456 Y78.204 E.01945
G1 X106.203 Y78.771 E.01947
G1 X105.858 Y79.287 E.01946
G1 X105.43 Y79.737 E.01947
G1 X104.933 Y80.108 E.01945
G1 X104.38 Y80.39 E.01946
G1 X103.787 Y80.575 E.01948
G1 X103.171 Y80.656 E.01948
G1 X102.551 Y80.633 E.01945
G1 X101.927 Y80.5 E.02
G1 X101.366 Y80.275 E.01895
G1 X100.836 Y79.952 E.01946
G1 X100.369 Y79.544 E.01944
G1 X99.977 Y79.063 E.01946
G1 X99.671 Y78.522 E.01949
G1 X99.462 Y77.938 E.01945
G1 X99.354 Y77.326 E.01949
G1 X99.352 Y76.706 E.01944
G1 X99.454 Y76.093 E.01948
G1 X99.645 Y75.545 E.0182
G1 X99.958 Y74.966 E.02064
G1 X100.346 Y74.479 E.01952
G1 X100.811 Y74.067 E.01948
G1 X101.338 Y73.739 E.01946
G1 X101.913 Y73.505 E.01946
G1 X102.519 Y73.372 E.01945
G1 X103.099 Y73.344 E.01821
G1 X103.753 Y73.418 E.02064
G1 X104.35 Y73.598 E.01955
G1 X104.905 Y73.875 E.01945
G1 X105.406 Y74.242 E.01947
G1 X105.838 Y74.688 E.01947
G1 X106.188 Y75.201 E.01947
G1 X106.416 Y75.7 E.0172
M204 P1000
G1 X106.835 Y75.825 F9000
G1 X107.04 Y76.252
M204 P600
;TYPE:Perimeter
;WIDTH:0.565586
G1 F1200
G1 X107.057 Y76.601 E.01519
;WIDTH:0.531401
G1 X107.074 Y76.949 E.01415
;WIDTH:0.522235
G1 X107.062 Y77.294 E.01376
;WIDTH:0.547254
G1 X107.049 Y77.64 E.01452
;WIDTH:0.554504
G1 X107.046 Y77.696 E.00239
M204 P1000
G1 E-2.24 F4200
;WIPE_START
G1 F7200
G1 X107.049 Y77.64 E-.03108
G1 X107.062 Y77.294 E-.19188
G1 X107.074 Y76.949 E-.1913
G1 X107.057 Y76.601 E-.19308
G1 X107.04 Y76.252 E-.19363
;WIPE_END
G1 E-.15903 F4200
G1 Z.4 F720
G1 X102.452 Y72.945 F9000
G1 Z.2 F720
G1 E3.2 F2400
M204 P600
;WIDTH:0.529414
G1 F1200
G1 X103.082 Y72.929 E.02549
;WIDTH:0.535682
G1 X103.444 Y72.948 E.01485
;WIDTH:0.574086
G1 X103.806 Y72.967 E.01601
M204 P1000
G1 E-2.24 F4200
;WIPE_START
G1 F7200
G1 X103.444 Y72.948 E-.20088
G1 X103.082 Y72.929 E-.20088
G1 X102.452 Y72.945 E-.34924
;WIPE_END
G1 E-.209 F4200
G1 Z.4 F720
G1 X76.452 Y72.944 F9000
G1 Z.2 F720
G1 E3.2 F2400
M204 P600
;WIDTH:0.532144
G1 F1200
G1 X76.429 Y72.951 E.00098
;WIDTH:0.525351
G1 X76.21 Y73.019 E.0092
;WIDTH:0.490234
G1 X75.991 Y73.087 E.00853
;WIDTH:0.455117
G1 X75.772 Y73.155 E.00786
;WIDTH:0.419999
G1 X75.14 Y73.418 E.02146
G1 X74.562 Y73.784 E.02145
G1 X74.053 Y74.242 E.02147
G1 X73.626 Y74.785 E.02166
G1 X73.289 Y75.419 E.02251
;WIDTH:0.469158
G1 X73.213 Y75.568 E.00593
;WIDTH:0.518316
G1 X73.137 Y75.716 E.00658
;WIDTH:0.567474
G1 X73.061 Y75.864 E.00726
;WIDTH:0.616632
G1 X72.985 Y76.013 E.00798
G1 X72.971 Y75.956 E.0028
;WIDTH:0.588422
G1 X72.957 Y75.899 E.00266
;WIDTH:0.560211
G1 X72.934 Y75.716 E.00793
;WIDTH:0.513474
G1 X72.91 Y75.533 E.00722
;WIDTH:0.466737
G1 X72.887 Y75.35 E.0065
;WIDTH:0.419999
G1 X72.887 Y73.113 E.07014
G1 X72.92 Y72.957 E.005
G1 X73.084 Y72.887 E.00559
G1 X75.839 Y72.887 E.08638
;WIDTH:0.457381
G1 X76.043 Y72.906 E.00706
;WIDTH:0.494763
G1 X76.247 Y72.925 E.0077
;WIDTH:0.532144
G1 X76.392 Y72.938 E.00592
M204 P1000
G1 X77.741 Y73.417 F9000
M204 P600
;TYPE:External perimeter
;WIDTH:0.419999
G1 F1200
G1 X78.35 Y73.598 E.01992
G1 X78.905 Y73.875 E.01945
G1 X79.406 Y74.242 E.01947
G1 X79.838 Y74.688 E.01947
G1 X80.165 Y75.168 E.01821
G1 X80.445 Y75.764 E.02065
G1 X80.605 Y76.366 E.01953
G1 X80.66 Y76.984 E.01945
G1 X80.61 Y77.603 E.01947
G1 X80.456 Y78.204 E.01945
G1 X80.203 Y78.771 E.01947
G1 X79.858 Y79.287 E.01946
G1 X79.43 Y79.737 E.01947
G1 X78.933 Y80.108 E.01945
G1 X78.448 Y80.356 E.01708
G1 X77.787 Y80.575 E.02183
G1 X77.171 Y80.656 E.01948
G1 X76.551 Y80.633 E.01945
G1 X75.944 Y80.504 E.01946
G1 X75.366 Y80.275 E.01949
G1 X74.836 Y79.952 E.01946
G1 X74.369 Y79.544 E.01944
G1 X73.977 Y79.063 E.01946
G1 X73.671 Y78.522 E.01949
G1 X73.462 Y77.938 E.01945
G1 X73.354 Y77.326 E.01949
G1 X73.354 Y76.674 E.02044
G1 X73.454 Y76.093 E.01848
G1 X73.645 Y75.545 E.0182
G1 X73.958 Y74.966 E.02064
G1 X74.346 Y74.479 E.01952
G1 X74.811 Y74.067 E.01948
G1 X75.338 Y73.739 E.01946
G1 X75.913 Y73.505 E.01946
G1 X76.519 Y73.372 E.01945
G1 X77.099 Y73.344 E.01821
G1 X77.681 Y73.41 E.01837
M204 P1000
G1 X78.007 Y73.118 F9000
G1 E-2.24 F4200
;WIPE_START
G1 F7200
G1 X78.35 Y73.598 E-.3851
G1 X78.905 Y73.875 E-.34374
G1 X79.242 Y74.122 E-.23116
;WIPE_END
G1 Z.4 F720
G1 X72.986 Y77.99 F9000
G1 Z.2 F720
G1 E3.2 F2400
M204 P600
;TYPE:Perimeter
;WIDTH:0.61707
G1 F1200
G1 X72.969 Y77.793 E.00944
;WIDTH:0.583506
G1 X72.952 Y77.595 E.00893
;WIDTH:0.549942
G1 X72.935 Y77.398 E.00834
;WIDTH:0.516378
G1 X72.931 Y76.706 E.02724
;WIDTH:0.543911
G1 X72.949 Y76.475 E.00965
;WIDTH:0.580272
G1 X72.967 Y76.244 E.01035
;WIDTH:0.616632
G1 X72.985 Y76.013 E.01105
M204 P1000
G1 E-2.24 F4200
;WIPE_START
G1 F7200
G1 X72.967 Y76.244 E-.1284
G1 X72.949 Y76.475 E-.1284
G1 X72.931 Y76.706 E-.1284
G1 X72.935 Y77.398 E-.38349
G1 X72.952 Y77.595 E-.10958
G1 X72.965 Y77.742 E-.08173
;WIPE_END
G1 Z.4 F720
G1 X76.452 Y72.944 F9000
G1 Z.2 F720
G1 E3.2 F2400
M204 P600
;WIDTH:0.532144
G1 F1200
G1 X77.082 Y72.928 E.02564
;WIDTH:0.5384
G1 X77.444 Y72.947 E.01493
;WIDTH:0.576808
G1 X77.806 Y72.966 E.01609
M204 P1000
G1 E-2.24 F4200
;WIPE_START
G1 F7200
G1 X77.444 Y72.947 E-.20088
G1 X77.082 Y72.928 E-.20088
G1 X76.452 Y72.944 E-.34924
;WIPE_END
G1 E-.209 F4200
G1 Z.4 F720
G1 X76.427 Y107.054 F9000
G1 Z.2 F720
G1 E3.2 F2400
M204 P600
;WIDTH:0.537174
G1 F1200
G1 X76.231 Y107.074 E.0081
;WIDTH:0.498116
G1 X76.035 Y107.093 E.00745
;WIDTH:0.459058
G1 X75.839 Y107.113 E.00682
;WIDTH:0.419999
G1 X73.113 Y107.113 E.08547
G1 X72.957 Y107.08 E.005
G1 X72.887 Y106.916 E.00559
G1 X72.887 Y104.69 E.06979
;WIDTH:0.469267
G1 X72.912 Y104.515 E.00627
;WIDTH:0.518535
G1 X72.936 Y104.34 E.00699
;WIDTH:0.567803
G1 X72.961 Y104.165 E.00772
;WIDTH:0.61707
G1 X72.986 Y103.99 E.00844
G1 X73.013 Y104.038 E.00263
;WIDTH:0.589427
G1 X73.04 Y104.087 E.00254
;WIDTH:0.561783
G1 X73.14 Y104.293 E.00988
;WIDTH:0.514522
G1 X73.241 Y104.5 E.00903
;WIDTH:0.467261
G1 X73.342 Y104.706 E.0081
;WIDTH:0.419999
G1 X73.683 Y105.3 E.02148
G1 X74.119 Y105.827 E.02145
G1 X74.639 Y106.273 E.02148
G1 X75.226 Y106.625 E.02146
G1 X75.864 Y106.873 E.02146
;WIDTH:0.459058
G1 X76.052 Y106.933 E.00683
;WIDTH:0.498116
G1 X76.24 Y106.994 E.00748
;WIDTH:0.537174
G1 X76.37 Y107.036 E.00561
M204 P1000
G1 E-2.24 F4200
;WIPE_START
G1 F7200
G1 X76.231 Y107.074 E-.07986
G1 X76.035 Y107.093 E-.10913
G1 X75.839 Y107.113 E-.10918
G1 X74.645 Y107.113 E-.66183
;WIPE_END
G1 Z.4 F720
G1 X79.823 Y100.674 F9000
G1 Z.2 F720
G1 E3.2 F2400
M204 P600
;TYPE:External perimeter
;WIDTH:0.419999
G1 F1200
G1 X80.188 Y101.201 E.0201
